;FLAVOR:Marlin
;TIME:5522
;Filament used: 3.57605m
;Layer height: 0.2
;MINX:73.859
;MINY:68
;MINZ:0.2
;MAXX:146.141
;MAXY:152
;MAXZ:31.4
;TARGET_MACHINE.NAME:Anycubic Mega Zero
;Generated with Cura_SteamEngine 5.8.1
M82 ;absolute extrusion mode
;Sliced at: Sun 15-09-2024 21:58:13
;Basic settings: Layer height: 0.2 Walls: 0.8 Fill: 20
G21 ;metric values
G90 ;absolute positioning
M82 ;set extruder to absolute mode
M107 ;start with the fan off
M117 Start heating ...
M104 S200
M117 Homing X/Y ...
G28 X0 Y0 ;move X/Y to min endstops
M117 Homing Z ...
G28 Z0 ;move Z to min endstops
G1 Z15.0 F100 ;move the platform down 15mm
M117 Heating ...
M109 S200
M117 Start cleaning ...
G92 E0 ;zero the extruded length
G1 F200 E10 ;extrude 10mm of feed stock
G92 E0 ;zero the extruded length again
M117 Intro line ...
G1 Z2.0 F3000 ; Move Z Axis up little to prevent scratching of Heat Bed
G1 X0.1 Y20 Z0.2 F5000.0 ; Move to start position
G1 X0.1 Y200.0 Z0.2 F1500.0 E15 ; Draw the first line
G1 X0.4 Y200.0 Z0.2 F5000.0 ; Move to side a little
G1 X0.4 Y20 Z0.3 F1500.0 E30 ; Draw the second line
G92 E0 ; Reset Extruder
G1 E-1 F500 ; Retract filiment by 1 mm
G1 Z2.0 F3000 ; Move Z Axis up little to prevent scratching of Heat Bed
G1 X5 Y20 Z0.3 F100 ; Move over to prevent blob squish
G1 F100
G92 E0 ; Reset Extruder
M117 Printing...

G92 E0
G92 E0
G1 F1800 E-7
;LAYER_COUNT:157
;LAYER:0
M107
G1 F300 Z0.4
G0 F3000 X75.147 Y83.581 Z0.4
;TYPE:SKIRT
G1 F300 Z0.2
G1 F1800 E0
G1 F1200 X75.642 Y83.188 E0.02102
G1 X76.191 Y82.879 E0.04198
G1 X76.874 Y82.616 E0.06632
G1 X79.944 Y82.131 E0.16969
G1 X82.597 Y81.635 E0.25946
G1 X85.262 Y81.06 E0.35014
G1 X87.896 Y80.411 E0.44037
G1 X90.513 Y79.689 E0.53066
G1 X93.108 Y78.892 E0.62095
G1 X95.68 Y78.022 E0.71126
G1 X98.214 Y77.084 E0.80113
G1 X100.759 Y76.058 E0.89239
G1 X103.244 Y74.976 E0.98254
G1 X105.705 Y73.82 E1.07297
G1 X108.099 Y72.61 E1.16219
G1 X110.523 Y71.299 E1.25385
G1 X112.854 Y69.952 E1.34339
G1 X115.109 Y68.57 E1.43136
G1 X115.678 Y68.292 E1.45242
G1 X116.296 Y68.105 E1.4739
G1 X117.081 Y68.003 E1.50022
G1 X141.492 Y68 E2.31214
G1 X142.224 Y68.012 E2.33649
G1 X142.884 Y68.083 E2.35857
G1 X143.434 Y68.229 E2.37749
G1 X144.008 Y68.479 E2.39832
G1 X144.489 Y68.781 E2.41721
G1 X145.061 Y69.289 E2.44265
G1 X145.451 Y69.782 E2.46356
G1 X145.761 Y70.333 E2.48459
G1 X145.98 Y70.925 E2.50558
G1 X146.095 Y71.482 E2.5245
G1 X146.14 Y72.24 E2.54975
G1 X146.141 Y106.395 E3.68575
G1 X146.131 Y107.099 E3.70917
G1 X146.072 Y107.724 E3.73005
G1 X145.515 Y110.936 E3.83848
G1 X145.136 Y113.605 E3.92814
G1 X144.826 Y116.342 E4.01975
G1 X144.597 Y119.008 E4.10875
G1 X144.447 Y121.707 E4.19866
G1 X144.359 Y125.808 E4.33509
G1 X144.359 Y133.319 E4.58491
G1 X144.347 Y134.08 E4.61022
G1 X144.276 Y134.74 E4.6323
G1 X144.109 Y135.348 E4.65327
G1 X143.848 Y135.924 E4.6743
G1 X143.5 Y136.45 E4.69528
G1 X143.074 Y136.916 E4.71628
G1 X142.632 Y137.271 E4.73513
G1 X142.033 Y137.617 E4.75814
G1 X141.562 Y137.801 E4.77496
G1 X140.637 Y137.98 E4.8063
G1 X137.928 Y138.176 E4.89663
G1 X135.266 Y138.442 E4.98561
G1 X132.528 Y138.795 E5.07743
G1 X129.874 Y139.214 E5.1668
G1 X127.183 Y139.717 E5.25785
G1 X124.555 Y140.284 E5.34727
G1 X121.911 Y140.937 E5.43785
G1 X119.283 Y141.662 E5.52853
G1 X116.706 Y142.454 E5.61819
G1 X114.103 Y143.334 E5.70958
G1 X111.593 Y144.263 E5.7986
G1 X109.079 Y145.277 E5.88876
G1 X106.544 Y146.381 E5.98073
G1 X104.098 Y147.53 E6.07061
G1 X101.704 Y148.74 E6.15983
G1 X99.285 Y150.048 E6.25129
G1 X96.808 Y151.481 E6.34647
G1 X96.292 Y151.722 E6.36541
G1 X95.682 Y151.902 E6.38657
G1 X94.872 Y151.999 E6.4137
G1 X80.515 Y152 E6.89121
G1 X79.783 Y151.989 E6.91556
G1 X79.121 Y151.919 E6.9377
G1 X78.512 Y151.752 E6.95871
G1 X77.937 Y151.491 E6.97971
G1 X77.41 Y151.144 E7.0007
G1 X76.944 Y150.717 E7.02172
G1 X76.551 Y150.222 E7.04274
G1 X76.241 Y149.673 E7.06371
G1 X76.022 Y149.081 E7.0847
G1 X75.899 Y148.486 E7.10491
G1 X75.862 Y148.033 E7.12003
G1 X75.859 Y127.393 E7.80652
G1 X75.819 Y124.608 E7.89916
G1 X75.704 Y121.913 E7.98888
G1 X75.511 Y119.188 E8.07974
G1 X75.247 Y116.529 E8.16861
G1 X74.899 Y113.805 E8.25995
G1 X74.481 Y111.141 E8.34964
G1 X73.926 Y108.16 E8.45049
G1 X73.864 Y107.579 E8.46992
G1 X73.859 Y87.14 E9.14973
G1 X73.871 Y86.416 E9.17381
G1 X73.942 Y85.756 E9.19589
G1 X74.088 Y85.206 E9.21481
G1 X74.31 Y84.685 E9.23365
G1 X74.72 Y84.045 E9.25893
G1 X75.147 Y83.581 E9.2799
G0 F3000 X75.398 Y83.892
G1 F1200 X75.841 Y83.535 E9.29883
G1 X76.335 Y83.252 E9.31776
G1 X76.978 Y83.004 E9.34068
G1 X80.006 Y82.526 E9.44264
G1 X82.683 Y82.026 E9.53322
G1 X85.346 Y81.451 E9.62383
G1 X88.003 Y80.797 E9.71484
G1 X90.62 Y80.074 E9.80515
G1 X93.236 Y79.271 E9.89616
G1 X95.808 Y78.401 E9.98647
G1 X98.364 Y77.455 E10.07712
G1 X100.92 Y76.425 E10.16877
G1 X103.404 Y75.343 E10.25889
G1 X105.875 Y74.182 E10.34969
G1 X108.289 Y72.962 E10.43965
G1 X110.713 Y71.651 E10.53131
G1 X113.063 Y70.293 E10.62159
G1 X115.288 Y68.928 E10.70841
G1 X115.797 Y68.674 E10.72733
G1 X116.348 Y68.502 E10.74653
G1 X117.133 Y68.4 E10.77285
G1 X141.486 Y68.4 E11.58284
G1 X142.184 Y68.41 E11.60606
G1 X142.781 Y68.47 E11.62601
G1 X143.331 Y68.616 E11.64494
G1 X143.795 Y68.818 E11.66177
G1 X144.276 Y69.12 E11.68066
G1 X144.749 Y69.539 E11.70168
G1 X145.104 Y69.981 E11.72053
G1 X145.387 Y70.475 E11.73947
G1 X145.588 Y71.006 E11.75835
G1 X145.703 Y71.563 E11.77727
G1 X145.74 Y72.24 E11.79982
G1 X145.741 Y106.389 E12.93562
G1 X145.731 Y107.093 E12.95904
G1 X145.678 Y107.656 E12.97785
G1 X145.121 Y110.868 E13.08627
G1 X144.74 Y113.549 E13.17634
G1 X144.427 Y116.308 E13.26869
G1 X144.199 Y118.974 E13.35769
G1 X144.047 Y121.698 E13.44843
G1 X143.959 Y125.799 E13.58486
G1 X143.959 Y133.313 E13.83478
G1 X143.949 Y134.04 E13.85896
G1 X143.889 Y134.637 E13.87892
G1 X143.743 Y135.186 E13.89781
G1 X143.512 Y135.706 E13.91673
G1 X143.203 Y136.182 E13.93561
G1 X142.821 Y136.606 E13.95459
G1 X142.43 Y136.926 E13.9714
G1 X141.887 Y137.244 E13.99233
G1 X141.416 Y137.428 E14.00914
G1 X140.608 Y137.581 E14.0365
G1 X137.895 Y137.777 E14.12697
G1 X135.215 Y138.045 E14.21655
G1 X132.477 Y138.398 E14.30837
G1 X129.812 Y138.819 E14.39811
G1 X127.099 Y139.326 E14.4899
G1 X124.471 Y139.893 E14.57932
G1 X121.804 Y140.551 E14.67069
G1 X119.176 Y141.277 E14.76137
G1 X116.578 Y142.075 E14.85176
G1 X113.975 Y142.955 E14.94315
G1 X111.443 Y143.892 E15.03295
G1 X108.919 Y144.91 E15.12347
G1 X106.384 Y146.014 E15.21543
G1 X103.928 Y147.168 E15.30568
G1 X101.514 Y148.388 E15.39565
G1 X99.095 Y149.696 E15.48711
G1 X96.635 Y151.12 E15.58165
G1 X96.179 Y151.338 E15.59846
G1 X95.569 Y151.518 E15.61961
G1 X94.872 Y151.599 E15.64295
G1 X80.52 Y151.6 E16.1203
G1 X79.822 Y151.591 E16.14352
G1 X79.224 Y151.532 E16.16351
G1 X78.674 Y151.386 E16.18243
G1 X78.154 Y151.155 E16.20136
G1 X77.678 Y150.847 E16.22021
G1 X77.255 Y150.466 E16.23915
G1 X76.898 Y150.023 E16.25807
G1 X76.615 Y149.531 E16.27695
G1 X76.413 Y148.999 E16.29588
G1 X76.298 Y148.453 E16.31444
G1 X76.261 Y148 E16.32955
G1 X76.259 Y127.393 E17.01494
G1 X76.219 Y124.602 E17.10778
G1 X76.104 Y121.896 E17.19787
G1 X75.91 Y119.16 E17.28909
G1 X75.644 Y116.478 E17.37874
G1 X75.296 Y113.754 E17.47007
G1 X74.876 Y111.079 E17.56013
G1 X74.324 Y108.118 E17.66031
G1 X74.262 Y107.537 E17.67975
G1 X74.259 Y87.146 E18.35795
G1 X74.269 Y86.456 E18.38091
G1 X74.329 Y85.859 E18.40086
G1 X74.475 Y85.309 E18.41979
G1 X74.677 Y84.845 E18.43662
G1 X75.017 Y84.313 E18.45762
G1 X75.398 Y83.892 E18.47651
G0 F3000 X75.652 Y84.201
G1 F1200 X76.043 Y83.88 E18.49333
G1 X76.479 Y83.625 E18.51013
G1 X77.082 Y83.392 E18.53163
G1 X80.068 Y82.921 E18.63218
G1 X82.768 Y82.417 E18.72353
G1 X85.431 Y81.841 E18.81415
G1 X88.11 Y81.183 E18.9059
G1 X90.727 Y80.459 E18.99621
G1 X93.364 Y79.65 E19.08795
G1 X95.936 Y78.78 E19.17826
G1 X98.503 Y77.83 E19.2693
G1 X101.08 Y76.792 E19.3617
G1 X103.564 Y75.71 E19.45182
G1 X106.045 Y74.544 E19.54299
G1 X108.479 Y73.314 E19.6337
G1 X110.903 Y72.003 E19.72536
G1 X113.272 Y70.634 E19.81636
G1 X115.47 Y69.284 E19.90216
G1 X115.92 Y69.054 E19.91896
G1 X116.401 Y68.898 E19.93578
G1 X117.133 Y68.8 E19.96035
G1 X141.48 Y68.8 E20.77013
G1 X142.178 Y68.81 E20.79335
G1 X142.681 Y68.857 E20.81015
G1 X143.171 Y68.983 E20.82698
G1 X143.635 Y69.185 E20.84381
G1 X144.061 Y69.457 E20.86062
G1 X144.439 Y69.792 E20.87742
G1 X144.759 Y70.183 E20.89423
G1 X145.014 Y70.62 E20.91105
G1 X145.197 Y71.091 E20.92786
G1 X145.304 Y71.585 E20.94467
G1 X145.34 Y72.24 E20.96649
G1 X145.341 Y106.383 E22.10209
G1 X145.331 Y107.087 E22.12551
G1 X145.284 Y107.588 E22.14224
G1 X144.727 Y110.8 E22.25067
G1 X144.344 Y113.493 E22.34114
G1 X144.028 Y116.274 E22.43423
G1 X143.801 Y118.94 E22.52323
G1 X143.647 Y121.689 E22.6148
G1 X143.559 Y125.79 E22.75123
G1 X143.559 Y133.307 E23.00125
G1 X143.549 Y134.034 E23.02543
G1 X143.502 Y134.537 E23.04223
G1 X143.376 Y135.027 E23.05906
G1 X143.175 Y135.491 E23.07588
G1 X142.903 Y135.917 E23.09269
G1 X142.568 Y136.296 E23.10951
G1 X142.177 Y136.616 E23.12632
G1 X141.741 Y136.871 E23.14312
G1 X141.27 Y137.055 E23.15994
G1 X140.579 Y137.182 E23.1833
G1 X137.862 Y137.378 E23.27391
G1 X135.164 Y137.648 E23.36409
G1 X132.426 Y138.001 E23.45591
G1 X129.742 Y138.425 E23.54629
G1 X127.02 Y138.934 E23.63839
G1 X124.387 Y139.502 E23.72798
G1 X121.697 Y140.165 E23.82013
G1 X119.069 Y140.892 E23.91082
G1 X116.45 Y141.696 E24.00194
G1 X113.847 Y142.576 E24.09333
G1 X111.293 Y143.521 E24.1839
G1 X108.759 Y144.543 E24.27478
G1 X106.224 Y145.647 E24.36674
G1 X103.758 Y146.806 E24.45737
G1 X101.324 Y148.036 E24.54808
G1 X98.905 Y149.344 E24.63954
G1 X96.462 Y150.759 E24.73344
G1 X96.006 Y150.977 E24.75025
G1 X95.521 Y151.121 E24.76708
G1 X94.872 Y151.199 E24.78882
G1 X80.525 Y151.2 E25.266
G1 X79.827 Y151.191 E25.28922
G1 X79.323 Y151.144 E25.30606
G1 X78.833 Y151.019 E25.32288
G1 X78.369 Y150.818 E25.33969
G1 X77.943 Y150.547 E25.35649
G1 X77.564 Y150.212 E25.37331
G1 X77.243 Y149.821 E25.39014
G1 X76.988 Y149.385 E25.40694
G1 X76.804 Y148.914 E25.42375
G1 X76.697 Y148.42 E25.44057
G1 X76.66 Y147.967 E25.45568
G1 X76.659 Y127.393 E26.13998
G1 X76.619 Y124.596 E26.23302
G1 X76.504 Y121.879 E26.32346
G1 X76.309 Y119.132 E26.41506
G1 X76.041 Y116.427 E26.50547
G1 X75.693 Y113.703 E26.59681
G1 X75.271 Y111.017 E26.68724
G1 X74.722 Y108.076 E26.78675
G1 X74.66 Y107.495 E26.80618
G1 X74.659 Y87.152 E27.48279
G1 X74.669 Y86.462 E27.50574
G1 X74.717 Y85.958 E27.52258
G1 X74.842 Y85.469 E27.53937
G1 X75.044 Y85.005 E27.5562
G1 X75.316 Y84.579 E27.57301
G1 X75.652 Y84.201 E27.58983
G1 F1800 E20.58983
G1 F300 Z0.4
;MESH:Laser Receiver Box_rev13.stl
G0 F3000 X138.046 Y119.617 Z0.4
;TYPE:WALL-INNER
G1 F300 Z0.2
G1 F1800 E27.58983
G1 F1200 X138.116 Y119.9 E27.59953
G1 X138.116 Y120.822 E27.63019
G1 X139.756 Y120.849 E27.68475
G1 X139.756 Y106.956 E28.14683
G1 X120.152 Y106.956 E28.79886
G1 X120.152 Y120.852 E29.26105
G1 X121.756 Y120.819 E29.31441
G1 X121.756 Y119.9 E29.34497
G1 X121.826 Y119.617 E29.35467
G1 X121.995 Y119.42 E29.3633
G1 X122.235 Y119.3 E29.37223
G1 X137.64 Y119.3 E29.8846
G1 X137.876 Y119.42 E29.89341
G1 X138.046 Y119.617 E29.90206
G0 F3000 X137.716 Y119.823
;TYPE:WALL-OUTER
G1 F1200 X137.716 Y121.215 E29.94836
G1 X140.156 Y121.256 E30.02952
G1 X140.156 Y106.556 E30.51845
G1 X119.752 Y106.556 E31.19709
G1 X119.752 Y121.26 E31.68614
G1 X122.156 Y121.211 E31.76612
G1 X122.156 Y119.823 E31.81228
G1 X122.315 Y119.7 E31.81897
G1 X137.56 Y119.7 E32.32602
G1 X137.716 Y119.823 E32.33263
G0 F3000 X137.716 Y120.023
G0 X138.131 Y119.144
;TYPE:SKIN
G1 F1200 X137.829 Y118.97 E32.34422
G1 X137.537 Y118.921 E32.35407
G1 X122.331 Y118.921 E32.85982
G1 X122.039 Y118.97 E32.86967
G1 X121.737 Y119.144 E32.88126
G1 X121.469 Y119.484 E32.89566
G1 X121.381 Y119.849 E32.90815
G1 X121.376 Y120.444 E32.92794
G1 X120.532 Y120.463 E32.95602
G1 X120.532 Y107.336 E33.39262
G1 X139.376 Y107.336 E34.01938
G1 X139.376 Y120.46 E34.45588
G1 X138.496 Y120.447 E34.48516
G1 X138.496 Y119.896 E34.50348
G1 X138.398 Y119.482 E34.51763
G1 X138.131 Y119.144 E34.53196
G0 F3000 X137.424 Y119.2
G0 X138.188 Y119.541
G0 X138.288 Y120.653
G0 X139.584 Y120.674
G0 X139.584 Y107.128
G0 X138.649 Y107.056
G0 X138.649 Y107.536
G1 F1200 X139.176 Y108.064 E34.55677
G0 F3000 X139.176 Y108.629
G1 F1200 X138.083 Y107.536 E34.60818
G0 F3000 X137.517 Y107.536
G1 F1200 X139.176 Y109.195 E34.68622
G0 F3000 X139.176 Y109.761
G1 F1200 X136.952 Y107.536 E34.79085
G0 F3000 X136.386 Y107.536
G1 F1200 X139.176 Y110.326 E34.92208
G0 F3000 X139.176 Y110.892
G1 F1200 X135.82 Y107.536 E35.07994
G0 F3000 X135.255 Y107.536
G1 F1200 X139.176 Y111.458 E35.26439
G0 F3000 X139.176 Y112.023
G1 F1200 X134.689 Y107.536 E35.47545
G0 F3000 X134.123 Y107.536
G1 F1200 X139.176 Y112.589 E35.71313
G0 F3000 X139.176 Y113.155
G1 F1200 X133.558 Y107.536 E35.9774
G0 F3000 X132.992 Y107.536
G1 F1200 X139.176 Y113.72 E36.26828
G0 F3000 X139.176 Y114.286
G1 F1200 X132.426 Y107.536 E36.58578
G0 F3000 X131.861 Y107.536
G1 F1200 X139.176 Y114.852 E36.92988
G0 F3000 X139.176 Y115.418
G1 F1200 X131.295 Y107.536 E37.3006
G0 F3000 X130.729 Y107.536
G1 F1200 X139.176 Y115.983 E37.69792
G0 F3000 X139.176 Y116.549
G1 F1200 X130.164 Y107.536 E38.12184
G0 F3000 X129.598 Y107.536
G1 F1200 X139.176 Y117.115 E38.57238
G0 F3000 X139.176 Y117.68
G1 F1200 X129.032 Y107.536 E39.04953
G0 F3000 X128.466 Y107.536
G1 F1200 X139.176 Y118.246 E39.55329
G0 F3000 X139.176 Y118.812
G1 F1200 X127.901 Y107.536 E40.08366
G0 F3000 X127.335 Y107.536
G1 F1200 X139.176 Y119.377 E40.64062
G0 F3000 X139.176 Y119.943
G1 F1200 X138.509 Y119.276 E40.672
G0 F3000 X138.19 Y118.957
G1 F1200 X126.769 Y107.536 E41.2092
G0 F3000 X126.204 Y107.536
G1 F1200 X137.39 Y118.723 E41.73538
G0 F3000 X136.824 Y118.723
G1 F1200 X125.638 Y107.536 E42.26156
G0 F3000 X125.072 Y107.536
G1 F1200 X136.259 Y118.723 E42.78776
G0 F3000 X135.693 Y118.723
G1 F1200 X124.507 Y107.536 E43.31394
G0 F3000 X123.941 Y107.536
G1 F1200 X135.127 Y118.723 E43.84012
G0 F3000 X134.562 Y118.723
G1 F1200 X123.375 Y107.536 E44.36632
G0 F3000 X122.81 Y107.536
G1 F1200 X133.995 Y118.722 E44.89246
G0 F3000 X133.43 Y118.722
G1 F1200 X122.244 Y107.536 E45.41861
G0 F3000 X121.678 Y107.536
G1 F1200 X132.864 Y118.722 E45.94477
G0 F3000 X132.298 Y118.722
G1 F1200 X121.113 Y107.536 E46.4709
G0 F3000 X120.732 Y107.721
G1 F1200 X131.733 Y118.722 E46.98835
G0 F3000 X131.166 Y118.721
G1 F1200 X120.732 Y108.287 E47.47913
G0 F3000 X120.732 Y108.853
G1 F1200 X130.601 Y118.721 E47.94332
G0 F3000 X130.035 Y118.721
G1 F1200 X120.732 Y109.418 E48.3809
G0 F3000 X120.732 Y109.984
G1 F1200 X129.469 Y118.721 E48.79186
G0 F3000 X128.903 Y118.721
G1 F1200 X120.732 Y110.55 E49.1762
G0 F3000 X120.732 Y111.115
G1 F1200 X128.337 Y118.72 E49.53392
G0 F3000 X127.771 Y118.72
G1 F1200 X120.732 Y111.681 E49.86501
G0 F3000 X120.732 Y112.247
G1 F1200 X127.206 Y118.72 E50.16951
G0 F3000 X126.64 Y118.72
G1 F1200 X120.732 Y112.813 E50.44738
G0 F3000 X120.732 Y113.378
G1 F1200 X126.074 Y118.72 E50.69865
G0 F3000 X125.509 Y118.72
G1 F1200 X120.732 Y113.944 E50.92332
G0 F3000 X120.732 Y114.51
G1 F1200 X124.942 Y118.72 E51.12134
G0 F3000 X124.377 Y118.72
G1 F1200 X120.732 Y115.075 E51.29279
G0 F3000 X120.732 Y115.641
G1 F1200 X123.811 Y118.72 E51.43762
G0 F3000 X123.245 Y118.72
G1 F1200 X120.732 Y116.207 E51.55582
G0 F3000 X120.732 Y116.772
G1 F1200 X122.679 Y118.72 E51.64743
G0 F3000 X122.138 Y118.744
G1 F1200 X120.732 Y117.338 E51.71356
G0 F3000 X120.732 Y117.904
G1 F1200 X121.734 Y118.906 E51.76069
G0 F3000 X121.446 Y119.183
G1 F1200 X120.732 Y118.469 E51.79428
G0 F3000 X120.732 Y119.035
G1 F1200 X121.248 Y119.551 E51.81855
G0 F3000 X121.181 Y120.05
G1 F1200 X120.732 Y119.601 E51.83967
G0 F3000 X120.732 Y120.166
G1 F1200 X120.822 Y120.256 E51.8439
G0 F3000 X120.833 Y120.739
G0 X121.918 Y120.611
G0 X121.929 Y119.472
G0 X137.945 Y119.473
G0 X137.956 Y120.605
G0 X138.695 Y120.028
G1 F1200 X138.92 Y120.253 E51.85449
M104 S200
G1 F1800 E44.85449
G1 F300 Z0.4
;MESH:NONMESH
G0 F3000 X75.652 Y84.201 Z0.4
;TIME_ELAPSED:95.520572
;LAYER:1
M106 S255
;TYPE:SKIRT
G1 F300 Z0.4
G1 F1800 E51.85449
G1 F1200 X76.043 Y83.88 E51.87131
