;FLAVOR:Marlin
;TIME:5944
;Filament used: 7.05952m
;Layer height: 0.3
;MINX:38.859
;MINY:77.82
;MINZ:0.3
;MAXX:181.14
;MAXY:142.169
;MAXZ:30.9
;TARGET_MACHINE.NAME:Anycubic Mega Zero
;Generated with Cura_SteamEngine 5.8.1
M82 ;absolute extrusion mode
;Sliced at: Sat 28-09-2024 20:18:56
;Basic settings: Layer height: 0.3 Walls: 0.8 Fill: 20
G21 ;metric values
G90 ;absolute positioning
M82 ;set extruder to absolute mode
M107 ;start with the fan off
M117 Start heating ...
M104 S200
M117 Homing X/Y ...
G28 X0 Y0 ;move X/Y to min endstops
M117 Homing Z ...
G28 Z0 ;move Z to min endstops
G1 Z15.0 F100 ;move the platform down 15mm
M117 Heating ...
M109 S200
M117 Start cleaning ...
G92 E0 ;zero the extruded length
G1 F200 E10 ;extrude 10mm of feed stock
G92 E0 ;zero the extruded length again
M117 Intro line ...
G1 Z2.0 F3000 ; Move Z Axis up little to prevent scratching of Heat Bed
G1 X0.1 Y20 Z0.3 F5000.0 ; Move to start position
G1 X0.1 Y200.0 Z0.3 F1500.0 E15 ; Draw the first line
G1 X0.4 Y200.0 Z0.3 F5000.0 ; Move to side a little
G1 X0.4 Y20 Z0.3 F1500.0 E30 ; Draw the second line
G92 E0 ; Reset Extruder
G1 E-1 F500 ; Retract filiment by 1 mm
G1 Z2.0 F3000 ; Move Z Axis up little to prevent scratching of Heat Bed
G1 X5 Y20 Z0.3 F100 ; Move over to prevent blob squish
G1 F100
G92 E0 ; Reset Extruder
M117 Printing...

G92 E0
G92 E0
G1 F1800 E-7
;LAYER_COUNT:103
;LAYER:0
M107
G1 F300 Z0.5
;MESH:laser_housing_rev2.stl
G0 F3000 X89.208 Y89.559 Z0.5
;TYPE:WALL-INNER
G1 F300 Z0.3
G1 F1800 E0
G1 X87.799 Y89.382 E0.07085
G1 X87.524 Y89.273 E0.08561
G1 X86.437 Y88.529 E0.15132
G1 X86.166 Y88.251 E0.17069
G1 X85.541 Y87.063 E0.23766
G1 X85.428 Y86.731 E0.25516
G1 X85.433 Y85.252 E0.32895
G1 X85.494 Y84.983 E0.34271
G1 X86.19 Y83.649 E0.41778
G1 X86.437 Y83.428 E0.43431
G1 X87.59 Y82.635 E0.50413
G1 X87.855 Y82.563 E0.51783
G1 X89.225 Y82.393 E0.5867
G1 X89.505 Y82.417 E0.60072
G1 X90.785 Y82.905 E0.66906
G1 X91.071 Y83.057 E0.68522
G1 X92.11 Y84.222 E0.7631
G1 X92.228 Y84.529 E0.77951
G1 X92.538 Y85.803 E0.84493
G1 X92.538 Y86.149 E0.86219
G1 X92.228 Y87.426 E0.92775
G1 X92.11 Y87.734 E0.9442
G1 X91.096 Y88.871 E1.02021
G1 X90.876 Y89.016 E1.03335
G1 X89.538 Y89.527 E1.10481
G1 X89.208 Y89.559 E1.12135
G0 F3000 X89.23 Y89.16
G1 F1800 X87.89 Y88.993 E1.18872
G1 X87.726 Y88.927 E1.19754
G1 X86.612 Y88.159 E1.26505
G1 X86.485 Y88.007 E1.27493
G1 X85.896 Y86.878 E1.33846
G1 X85.828 Y86.68 E1.3489
G1 X85.831 Y85.293 E1.4181
G1 X85.863 Y85.153 E1.42527
G1 X86.539 Y83.843 E1.49881
G1 X87.688 Y83.053 E1.56838
G1 X87.924 Y82.957 E1.58109
G1 X89.264 Y82.796 E1.64842
G1 X89.478 Y82.835 E1.65927
G1 X90.778 Y83.331 E1.72869
G1 X91.803 Y84.479 E1.80547
G1 X92.144 Y85.872 E1.87702
G1 X92.144 Y86.08 E1.8874
G1 X91.804 Y87.476 E1.95908
G1 X90.83 Y88.568 E2.03208
G1 X90.722 Y88.64 E2.03856
G1 X89.41 Y89.143 E2.10866
G1 X89.23 Y89.16 E2.11768
G1 F1800 E-4.88232
G1 F300 Z0.5
G0 F3000 X78.6 Y104.051 Z0.5
G1 F300 Z0.3
G1 F1800 E2.11768
G1 X77.242 Y103.882 E2.18596
G1 X76.961 Y103.774 E2.20097
G1 X75.823 Y102.997 E2.26972
G1 X75.636 Y102.789 E2.28368
G1 X74.955 Y101.486 E2.35703
G1 X74.916 Y101.164 E2.37321
G1 X74.916 Y99.972 E2.43268
G1 X74.954 Y99.651 E2.4488
G1 X75.644 Y98.332 E2.52307
G1 X75.905 Y98.083 E2.54107
G1 X76.971 Y97.351 E2.60558
G1 X77.231 Y97.257 E2.61937
G1 X78.582 Y97.089 E2.68729
G1 X78.953 Y97.136 E2.70595
G1 X80.213 Y97.62 E2.77329
G1 X80.459 Y97.796 E2.78838
G1 X81.359 Y98.805 E2.85584
G1 X81.494 Y99.041 E2.8694
G1 X81.83 Y100.395 E2.939
G1 X81.83 Y100.741 E2.95626
G1 X81.499 Y102.063 E3.02425
G1 X81.376 Y102.312 E3.03811
G1 X80.445 Y103.354 E3.10782
G1 X80.178 Y103.533 E3.12386
G1 X78.947 Y104.002 E3.18958
G1 X78.6 Y104.051 E3.20706
G0 F3000 X78.727 Y103.659
G1 F1800 X77.328 Y103.491 E3.27736
G1 X77.18 Y103.443 E3.28512
G1 X76.081 Y102.688 E3.35165
G1 X75.972 Y102.568 E3.35973
G1 X75.316 Y101.312 E3.43043
G1 X75.316 Y99.824 E3.50466
G1 X75.974 Y98.565 E3.57554
G1 X76.081 Y98.448 E3.58345
G1 X77.237 Y97.654 E3.65341
G1 X78.607 Y97.489 E3.72226
G1 X78.782 Y97.499 E3.731
G1 X80.032 Y97.976 E3.79775
G1 X80.194 Y98.096 E3.80781
G1 X81.049 Y99.065 E3.87228
G1 X81.129 Y99.227 E3.8813
G1 X81.436 Y100.464 E3.94488
G1 X81.436 Y100.672 E3.95526
G1 X81.122 Y101.929 E4.0199
G1 X81.033 Y102.093 E4.02921
G1 X80.171 Y103.062 E4.09391
G1 X80.011 Y103.17 E4.10354
G1 X78.727 Y103.659 E4.17209
G1 F1800 E-2.82791
G1 F300 Z0.5
G0 F3000 X91.423 Y125.225 Z0.5
G1 F300 Z0.3
G1 F1800 E4.17209
G1 X91.54 Y125.696 E4.1963
G1 X91.54 Y138.876 E4.85385
G1 X91.227 Y139.423 E4.8853
G1 X90.835 Y139.62 E4.90718
G1 X92.644 Y139.62 E4.99744
G1 X92.644 Y112.579 E6.34652
G1 X92.702 Y112.283 E6.36156
G1 X92.792 Y112.095 E6.37196
G1 X93.007 Y111.848 E6.3883
G1 X93.276 Y111.689 E6.40389
G1 X93.644 Y111.62 E6.42257
G1 X96.34 Y111.62 E6.55707
G1 X96.34 Y78.62 E8.20345
G1 X70.34 Y78.62 E9.5006
G1 X70.34 Y111.62 E11.14697
G1 X72.807 Y111.62 E11.27005
G1 X73.165 Y111.765 E11.28932
G1 X73.361 Y111.922 E11.30185
G1 X73.579 Y112.263 E11.32204
G1 X73.641 Y112.532 E11.33581
G1 X73.645 Y139.619 E12.68719
G1 X75.334 Y139.62 E12.77146
G1 X74.893 Y139.459 E12.79488
G1 X74.585 Y138.995 E12.82266
G1 X74.54 Y138.696 E12.83775
G1 X74.54 Y125.696 E13.48632
G1 X74.657 Y125.225 E13.51053
G1 X74.94 Y124.896 E13.53218
G1 X75.259 Y124.736 E13.54999
G1 X75.54 Y124.696 E13.56415
G1 X90.54 Y124.696 E14.3125
G1 X90.82 Y124.736 E14.32661
G1 X91.14 Y124.896 E14.34446
G1 X91.423 Y125.225 E14.36611
G1 F1800 E7.36611
G0 F3000 X91.44 Y125.225
G0 X74.844 Y124.767
G0 X74.673 Y139.439
G0 X73.817 Y139.447
G0 X73.547 Y112.295
G0 X73.149 Y112.295
G1 F1800 E14.36611
G1 X73.242 Y112.567 E14.38045
G1 X73.245 Y140.019 E15.75004
G1 X74.833 Y140.021 E15.82927
G1 F1496.9 X75.54 Y139.939 E15.87196
G1 F1272.1 X90.707 Y139.936 E16.94267
G1 F1487.6 X91.306 Y140.02 E16.97919
G1 F1800 X93.044 Y140.02 E17.0659
G1 X93.044 Y112.595 E18.43414
G1 X93.078 Y112.418 E18.44313
G1 X93.229 Y112.185 E18.45698
G1 X93.423 Y112.061 E18.46847
G1 X93.644 Y112.02 E18.47968
G1 X96.74 Y112.02 E18.63414
G1 X96.74 Y78.22 E20.32043
G1 X69.94 Y78.22 E21.65749
G1 X69.94 Y112.02 E23.34378
G1 X72.745 Y112.02 E23.48372
G1 X72.986 Y112.126 E23.49685
G1 X73.149 Y112.295 E23.50857
G0 F3000 X73.547 Y112.295
G0 X73.817 Y139.447
G0 X75.151 Y139.597
G0 X75.151 Y139.154
G1 F1800 X74.967 Y138.876 E23.5252
G1 X74.94 Y138.696 E23.53428
G1 X74.94 Y125.696 E24.18285
G1 X75.01 Y125.413 E24.1974
G1 X75.18 Y125.216 E24.21038
G1 X75.419 Y125.096 E24.22372
G1 X90.66 Y125.096 E24.9841
G1 X90.9 Y125.216 E24.99748
G1 X91.07 Y125.413 E25.01047
G1 X91.14 Y125.696 E25.02501
G1 X91.14 Y138.805 E25.67902
G1 X90.953 Y139.132 E25.69781
G1 F1487.6 X90.658 Y139.371 E25.72073
G1 F1272.1 X75.54 Y139.377 E26.78798
G1 F1496.9 X75.151 Y139.154 E26.81488
G1 F1800 E19.81488
G0 F3000 X75.151 Y139.597
G0 X90.575 Y139.597
G0 X90.575 Y138.894
;TYPE:WALL-OUTER
G1 F1800 E26.81488
G1 X75.54 Y138.896 E27.56498
G1 X75.41 Y138.849 E27.57188
G1 X75.34 Y138.742 E27.57826
G1 X75.34 Y125.619 E28.23297
G1 X75.499 Y125.496 E28.243
G1 X90.58 Y125.496 E28.99539
G1 X90.74 Y125.619 E29.00546
G1 X90.735 Y138.741 E29.66012
G1 X90.678 Y138.842 E29.6659
G1 X90.575 Y138.894 E29.67166
G0 F3000 X90.375 Y138.894
G1 F1800 E22.67166
G0 F3000 X90.375 Y139.597
G0 X91.368 Y139.525
G0 X91.368 Y124.869
G0 X74.844 Y124.767
G0 X74.673 Y139.439
G0 X73.817 Y139.447
G0 X73.547 Y112.602
G0 X72.844 Y112.602
G1 F1800 E29.67166
G1 X72.845 Y140.419 E31.05946
G1 X93.444 Y140.42 E32.08715
G1 X93.45 Y112.568 E33.47669
G1 X93.516 Y112.465 E33.48279
G1 X93.644 Y112.42 E33.48956
G1 X97.14 Y112.42 E33.66398
G1 X97.14 Y77.82 E35.39018
G1 X69.54 Y77.82 E36.76715
G1 X69.54 Y112.42 E38.49335
G1 X72.705 Y112.42 E38.65125
G1 X72.813 Y112.511 E38.6583
G1 X72.844 Y112.602 E38.66309
G0 F3000 X72.844 Y112.802
G1 F1800 E31.66309
G1 F300 Z0.5
G0 F3000 X78.667 Y103.253 Z0.5
G1 F300 Z0.3
G1 F1800 E38.66309
G1 X77.388 Y103.097 E38.72737
G1 X76.314 Y102.36 E38.79236
G1 X75.721 Y101.213 E38.85678
G1 X75.721 Y99.923 E38.92114
G1 X76.314 Y98.777 E38.98551
G1 X77.374 Y98.045 E39.04978
G1 X78.67 Y97.883 E39.11494
G1 X79.873 Y98.341 E39.17916
G1 X80.74 Y99.314 E39.24418
G1 X81.051 Y100.568 E39.30864
G1 X80.734 Y101.828 E39.37346
G1 X79.874 Y102.794 E39.43798
G1 X78.667 Y103.253 E39.50241
G0 F3000 X78.469 Y103.229
G1 F1800 E32.50241
G1 F300 Z0.5
G0 F3000 X89.287 Y88.765 Z0.5
G1 F300 Z0.3
G1 F1800 E39.50241
G1 X87.952 Y88.599 E39.56952
G1 X86.849 Y87.84 E39.63632
G1 X86.23 Y86.655 E39.70302
G1 X86.232 Y85.297 E39.77077
G1 X86.859 Y84.108 E39.83784
G1 X87.956 Y83.361 E39.90405
G1 X89.276 Y83.192 E39.97044
G1 X90.547 Y83.671 E40.03821
G1 X91.442 Y84.683 E40.10561
G1 X91.759 Y85.976 E40.17203
G1 X91.439 Y87.285 E40.23925
G1 X90.549 Y88.282 E40.30593
G1 X89.287 Y88.765 E40.37335
G0 F3000 X89.089 Y88.741
G1 F1800 E33.37335
G1 F300 Z0.5
G0 F3000 X91.763 Y125.044 Z0.5
;TYPE:SKIN
G1 F300 Z0.3
G1 F1800 E40.37335
G1 X91.369 Y124.59 E40.40334
G1 X90.898 Y124.361 E40.42946
G1 X90.563 Y124.317 E40.44632
G1 X75.514 Y124.317 E41.19712
G1 X75.177 Y124.361 E41.21407
G1 F1722.5 X74.707 Y124.585 E41.24122
G1 F1585.9 X74.324 Y125.032 E41.27455
G1 F1411.8 X74.095 Y125.627 E41.31511
G1 F1522.2 X74.022 Y125.058 E41.34895
G1 F1800 X74.02 Y112.493 E41.97582
G1 X73.964 Y112.221 E41.98967
G1 X73.806 Y111.873 E42.00874
G1 X73.43 Y111.477 E42.03598
G1 X72.89 Y111.245 E42.06531
G1 X70.72 Y111.24 E42.17357
G1 X70.72 Y79 E43.78203
G1 X95.96 Y79 E45.04126
G1 X95.96 Y111.24 E46.64972
G1 X93.607 Y111.243 E46.76711
G1 X93.133 Y111.335 E46.7912
G1 X92.685 Y111.623 E46.81777
G1 X92.469 Y111.892 E46.83498
G1 X92.339 Y112.164 E46.85002
G1 X92.265 Y112.548 E46.86953
G1 X92.264 Y125.03 E47.49226
G1 F1865.3 X92.278 Y125.692 E47.52414
G1 F1909.8 X92.278 Y139.244 E48.16138
G1 F1855.7 X91.75 Y139.243 E48.18693
G1 F1850.9 X91.906 Y138.954 E48.20286
G1 F1884.8 X91.903 Y125.645 E48.83697
G1 F1850.9 X91.763 Y125.044 E48.86691
G1 F1800 E41.86691
G0 F3000 X91.511 Y125.176
G0 X74.712 Y124.869
G0 X74.487 Y139.019
G0 X74.125 Y139.136
G1 F1800 E48.86691
G1 F1258.7 X74.093 Y138.736 E48.89554
G1 F1323.5 X74.095 Y125.627 E49.78499
G1 F1800 E42.78499
G1 F300 Z0.5
G0 F3000 X78.599 Y104.428 Z0.5
G1 F300 Z0.3
G1 F1800 E49.78499
G1 X79.063 Y104.363 E49.80837
G1 X80.345 Y103.872 E49.87686
G1 X80.71 Y103.626 E49.89882
G1 X81.658 Y102.557 E49.9701
G1 X81.863 Y102.165 E49.99217
G1 X82.202 Y100.811 E50.06181
G1 X82.21 Y100.353 E50.08466
G1 X81.851 Y98.933 E50.15773
G1 X81.599 Y98.503 E50.1826
G1 X80.696 Y97.484 E50.25053
G1 X80.399 Y97.29 E50.26822
G1 X79.071 Y96.773 E50.33932
G1 X78.555 Y96.708 E50.36527
G1 X77.208 Y96.869 E50.43295
G1 X76.701 Y97.075 E50.46025
G1 X75.591 Y97.83 E50.52723
G1 X75.314 Y98.143 E50.54808
G1 X74.69 Y99.335 E50.6152
G1 X74.581 Y99.616 E50.63024
G1 X74.537 Y99.945 E50.6468
G1 X74.536 Y101.168 E50.70782
G1 X74.57 Y101.479 E50.72342
G1 X74.69 Y101.797 E50.74038
G1 X75.31 Y102.989 E50.80741
G1 X75.556 Y103.268 E50.82597
G1 X76.803 Y104.134 E50.90172
G1 X77.143 Y104.247 E50.91959
G1 X78.599 Y104.428 E50.99279
G1 F1800 E43.99279
G1 F300 Z0.5
G0 F3000 X89.178 Y89.936 Z0.5
G1 F300 Z0.3
G1 F1800 E50.99279
G1 X89.668 Y89.883 E51.01738
G1 X91.028 Y89.363 E51.09002
G1 X91.37 Y89.134 E51.11055
G1 X92.282 Y88.11 E51.17897
G1 X92.46 Y87.86 E51.19428
G1 X92.592 Y87.532 E51.21192
G1 X92.91 Y86.219 E51.27932
G1 X92.907 Y85.716 E51.30441
G1 X92.599 Y84.444 E51.36971
G1 X92.483 Y84.136 E51.38613
G1 X92.282 Y83.842 E51.40389
G1 X91.334 Y82.782 E51.47484
G1 X90.915 Y82.544 E51.49888
G1 X89.59 Y82.042 E51.56957
G1 X89.233 Y82.012 E51.58745
G1 X87.789 Y82.186 E51.66001
G1 X87.511 Y82.266 E51.67444
G1 X87.259 Y82.398 E51.68863
G1 X86.222 Y83.111 E51.75142
G1 X85.866 Y83.443 E51.7757
G1 X85.146 Y84.823 E51.85336
G1 X85.056 Y85.187 E51.87207
G1 X85.045 Y86.765 E51.9508
G1 X85.142 Y87.125 E51.9694
G1 X85.831 Y88.43 E52.04302
G1 X86.146 Y88.791 E52.06692
G1 X87.319 Y89.59 E52.13773
G1 X87.763 Y89.765 E52.16154
G1 X89.178 Y89.936 E52.23265
G1 F1800 E45.23265
G1 F300 Z0.5
G0 F3000 X95.605 Y79.2 Z0.5
G1 F300 Z0.3
G1 F1800 E52.23265
G1 X95.76 Y79.355 E52.24358
G0 F3000 X95.76 Y79.921
G1 F1800 X95.039 Y79.2 E52.29446
G0 F3000 X94.474 Y79.2
G1 F1800 X95.76 Y80.486 E52.38519
G0 F3000 X95.76 Y81.052
G1 F1800 X93.908 Y79.2 E52.51586
G0 F3000 X93.342 Y79.2
G1 F1800 X95.76 Y81.618 E52.68646
G0 F3000 X95.76 Y82.183
G1 F1800 X92.777 Y79.2 E52.89693
G0 F3000 X92.211 Y79.2
G1 F1800 X95.76 Y82.749 E53.14733
G0 F3000 X95.76 Y83.315
G1 F1800 X91.645 Y79.2 E53.43766
G0 F3000 X91.08 Y79.2
G1 F1800 X95.76 Y83.881 E53.7679
G0 F3000 X95.76 Y84.446
G1 F1800 X90.514 Y79.2 E54.13803
G0 F3000 X89.948 Y79.2
G1 F1800 X95.76 Y85.012 E54.5481
G0 F3000 X95.76 Y85.578
G1 F1800 X89.383 Y79.2 E54.99807
G0 F3000 X88.817 Y79.2
G1 F1800 X95.76 Y86.143 E55.48793
G0 F3000 X95.76 Y86.709
G1 F1800 X88.251 Y79.2 E56.01773
G0 F3000 X87.685 Y79.2
G1 F1800 X90.754 Y82.268 E56.23423
G1 X90.824 Y82.338
G0 F3000 X90.666 Y82.752
G0 X89.673 Y82.372
G0 X89.844 Y81.924
G1 F1800 X87.12 Y79.2 E56.42643
G0 F3000 X86.554 Y79.2
G1 F1800 X89.168 Y81.814 E56.61086
G0 F3000 X88.665 Y81.877
G1 F1800 X85.988 Y79.2 E56.79974
G0 F3000 X85.423 Y79.2
G1 F1800 X88.161 Y81.939 E56.99295
G0 F3000 X87.671 Y82.014
G1 F1800 X84.857 Y79.2 E57.19149
G0 F3000 X84.291 Y79.2
G1 F1800 X87.262 Y82.171 E57.40111
G0 F3000 X86.917 Y82.391
G1 F1800 X83.726 Y79.2 E57.62626
G0 F3000 X83.16 Y79.2
G1 F1800 X86.582 Y82.622 E57.8677
G0 F3000 X86.246 Y82.852
G1 F1800 X82.594 Y79.2 E58.12537
G0 F3000 X82.029 Y79.2
G1 F1800 X85.938 Y83.11 E58.4012
G0 F3000 X85.663 Y83.4
G1 F1800 X81.463 Y79.2 E58.69753
G0 F3000 X80.897 Y79.2
G1 F1800 X85.469 Y83.772 E59.02011
G0 F3000 X85.275 Y84.144
G1 F1800 X80.332 Y79.2 E59.3689
G0 F3000 X79.766 Y79.2
G1 F1800 X85.081 Y84.516 E59.74394
G0 F3000 X84.921 Y84.921
G1 F1800 X79.2 Y79.2 E60.14759
G0 F3000 X78.635 Y79.2
G1 F1800 X84.854 Y85.419 E60.58637
G0 F3000 X84.852 Y85.983
G1 F1800 X78.069 Y79.2 E61.06495
G0 F3000 X77.503 Y79.2
G1 F1800 X84.85 Y86.547 E61.58332
G0 F3000 X84.982 Y87.244
G1 F1800 X76.937 Y79.2 E62.1509
G0 F3000 X76.372 Y79.2
G1 F1800 X85.604 Y88.432 E62.80227
G1 X85.674 Y88.502
G0 F3000 X86.33 Y89.158
G1 F1800 X95.76 Y98.588 E63.46761
G0 F3000 X95.76 Y98.023
G1 F1800 X87.682 Y89.945 E64.03756
G0 F3000 X88.339 Y90.036
G1 F1800 X95.76 Y97.457 E64.56115
G0 F3000 X95.76 Y96.891
G1 F1800 X88.982 Y90.114 E65.03934
G0 F3000 X89.535 Y90.101
G1 F1800 X95.76 Y96.326 E65.47854
G0 F3000 X95.76 Y95.76
G1 F1800 X89.977 Y89.977 E65.88657
G0 F3000 X90.387 Y89.821
G1 F1800 X95.76 Y95.194 E66.26566
G0 F3000 X95.76 Y94.629
G1 F1800 X90.797 Y89.665 E66.61586
G0 F3000 X91.188 Y89.491
G1 F1800 X95.76 Y94.063 E66.93844
G0 F3000 X95.76 Y93.497
G1 F1800 X91.524 Y89.261 E67.23731
G0 F3000 X91.79 Y88.962
G1 F1800 X95.76 Y92.932 E67.51742
G0 F3000 X95.76 Y92.366
G1 F1800 X92.057 Y88.663 E67.77868
G0 F3000 X92.323 Y88.364
G1 F1800 X95.76 Y91.8 E68.02115
G0 F3000 X95.76 Y91.234
G1 F1800 X92.572 Y88.046 E68.24608
G0 F3000 X92.753 Y87.662
G1 F1800 X95.76 Y90.669 E68.45824
G0 F3000 X95.76 Y90.103
G1 F1800 X92.873 Y87.216 E68.66193
G0 F3000 X92.983 Y86.761
G1 F1800 X95.76 Y89.537 E68.85783
G0 F3000 X95.76 Y88.972
G1 F1800 X93.094 Y86.306 E69.04593
G0 F3000 X93.101 Y85.747
G1 F1800 X95.76 Y88.406 E69.23354
G0 F3000 X95.76 Y87.84
G1 F1800 X92.943 Y85.023 E69.43229
G0 F3000 X92.738 Y84.253
G1 F1800 X95.76 Y87.275 E69.64551
G1 X95.83 Y87.345
G0 F3000 X96.24 Y87.345
G0 X96.24 Y99.154
G0 X95.76 Y99.154
G1 F1800 X75.806 Y79.2 E71.05337
G0 F3000 X75.24 Y79.2
G1 F1800 X95.76 Y99.72 E72.50117
G0 F3000 X95.76 Y100.285
G1 F1800 X74.675 Y79.2 E73.98883
G0 F3000 X74.109 Y79.2
G1 F1800 X95.76 Y100.851 E75.51642
G0 F3000 X95.76 Y101.417
G1 F1800 X73.543 Y79.2 E77.08395
G0 F3000 X72.978 Y79.2
G1 F1800 X95.76 Y101.982 E78.69135
G0 F3000 X95.76 Y102.548
G1 F1800 X72.412 Y79.2 E80.33867
G0 F3000 X71.846 Y79.2
G1 F1800 X95.76 Y103.114 E82.02594
G0 F3000 X95.76 Y103.68
G1 F1800 X71.281 Y79.2 E83.7531
G0 F3000 X70.92 Y79.405
G1 F1800 X95.76 Y104.245 E85.50569
G0 F3000 X95.76 Y104.811
G1 F1800 X70.92 Y79.971 E87.25829
G0 F3000 X70.92 Y80.537
G1 F1800 X95.76 Y105.377 E89.01089
G0 F3000 X95.76 Y105.942
