;FLAVOR:Marlin
;TIME:4394
;Filament used: 2.86271m
;Layer height: 0.2
;MINX:82.115
;MINY:84.156
;MINZ:0.2
;MAXX:137.888
;MAXY:135.837
;MAXZ:25
;TARGET_MACHINE.NAME:Anycubic Mega Zero
;Generated with Cura_SteamEngine 5.8.1
M82 ;absolute extrusion mode
;Sliced at: Sun 29-09-2024 20:59:45
;Basic settings: Layer height: 0.2 Walls: 0.8 Fill: 20
G21 ;metric values
G90 ;absolute positioning
M82 ;set extruder to absolute mode
M107 ;start with the fan off
M117 Start heating ...
M104 S200
M117 Homing X/Y ...
G28 X0 Y0 ;move X/Y to min endstops
M117 Homing Z ...
G28 Z0 ;move Z to min endstops
G1 Z15.0 F100 ;move the platform down 15mm
M117 Heating ...
M109 S200
M117 Start cleaning ...
G92 E0 ;zero the extruded length
G1 F200 E10 ;extrude 10mm of feed stock
G92 E0 ;zero the extruded length again
M117 Intro line ...
G1 Z2.0 F3000 ; Move Z Axis up little to prevent scratching of Heat Bed
G1 X0.1 Y20 Z0.2 F5000.0 ; Move to start position
G1 X0.1 Y200.0 Z0.2 F1500.0 E15 ; Draw the first line
G1 X0.4 Y200.0 Z0.2 F5000.0 ; Move to side a little
G1 X0.4 Y20 Z0.3 F1500.0 E30 ; Draw the second line
G92 E0 ; Reset Extruder
G1 E-1 F500 ; Retract filiment by 1 mm
G1 Z2.0 F3000 ; Move Z Axis up little to prevent scratching of Heat Bed
G1 X5 Y20 Z0.3 F100 ; Move over to prevent blob squish
G1 F100
G92 E0 ; Reset Extruder
M117 Printing...

G92 E0
G92 E0
G1 F1800 E-7
;LAYER_COUNT:125
;LAYER:0
M107
G1 F300 Z0.4
;MESH:laser_transmitter_rev1.stl
G0 F3000 X129.956 Y95.895 Z0.4
;TYPE:WALL-INNER
G1 F300 Z0.2
G1 F1800 E0
G1 F1200 X128.546 Y95.718 E0.04726
G1 X128.271 Y95.608 E0.05712
G1 X127.1 Y94.799 E0.10445
G1 X126.916 Y94.589 E0.11374
G1 X126.249 Y93.323 E0.16133
G1 X126.172 Y93.06 E0.17045
G1 X126.177 Y91.587 E0.21944
G1 X126.238 Y91.317 E0.22865
G1 X126.939 Y89.983 E0.27877
G1 X127.185 Y89.764 E0.28972
G1 X128.338 Y88.971 E0.33627
G1 X128.603 Y88.899 E0.3454
G1 X129.973 Y88.729 E0.39132
G1 X130.253 Y88.753 E0.40066
G1 X131.527 Y89.237 E0.44599
G1 X131.815 Y89.389 E0.45682
G1 X132.853 Y90.557 E0.5088
G1 X132.972 Y90.865 E0.51978
G1 X133.282 Y92.139 E0.56339
G1 X133.282 Y92.485 E0.5749
G1 X132.972 Y93.762 E0.6186
G1 X132.854 Y94.07 E0.62957
G1 X131.843 Y95.203 E0.68008
G1 X131.626 Y95.349 E0.68878
G1 X130.297 Y95.858 E0.73611
G1 X129.956 Y95.895 E0.74752
G0 F3000 X129.978 Y95.496
G1 F1200 X128.638 Y95.328 E0.79244
G1 X128.473 Y95.262 E0.79835
G1 X127.36 Y94.496 E0.84329
G1 X127.25 Y94.37 E0.84885
G1 X126.618 Y93.168 E0.89402
G1 X126.572 Y93.012 E0.89943
G1 X126.575 Y91.629 E0.94543
G1 X126.607 Y91.488 E0.95023
G1 X127.287 Y90.179 E0.9993
G1 X128.436 Y89.389 E1.04567
G1 X128.672 Y89.293 E1.05415
G1 X130.012 Y89.132 E1.09904
G1 X130.225 Y89.17 E1.10623
G1 X131.524 Y89.664 E1.15246
G1 X132.547 Y90.816 E1.2037
G1 X132.888 Y92.208 E1.25137
G1 X132.888 Y92.416 E1.25828
G1 X132.548 Y93.812 E1.30607
G1 X131.533 Y94.95 E1.35679
G1 X130.227 Y95.457 E1.40339
G1 X129.978 Y95.496 E1.41177
G1 F1800 E-5.58823
G1 F300 Z0.4
G0 F3000 X119.271 Y110.377 Z0.4
G1 F300 Z0.2
G1 F1800 E1.41177
G1 F1200 X117.99 Y110.218 E1.4547
G1 X117.709 Y110.11 E1.46471
G1 X116.568 Y109.333 E1.51063
G1 X116.382 Y109.129 E1.51981
G1 X115.699 Y107.822 E1.56886
G1 X115.66 Y107.5 E1.57965
G1 X115.66 Y106.308 E1.61929
G1 X115.699 Y105.987 E1.63005
G1 X116.381 Y104.68 E1.67908
G1 X116.567 Y104.475 E1.68829
G1 X117.712 Y103.692 E1.73442
G1 X117.977 Y103.593 E1.74383
G1 X119.33 Y103.421 E1.7892
G1 X119.658 Y103.455 E1.80016
G1 X120.962 Y103.956 E1.84663
G1 X121.207 Y104.132 E1.85666
G1 X122.109 Y105.139 E1.90162
G1 X122.258 Y105.438 E1.91273
G1 X122.574 Y106.731 E1.95701
G1 X122.574 Y107.077 E1.96851
G1 X122.248 Y108.4 E2.01383
G1 X122.051 Y108.734 E2.02673
G1 X121.224 Y109.659 E2.068
G1 X120.946 Y109.86 E2.07941
G1 X119.682 Y110.342 E2.1244
G1 X119.271 Y110.377 E2.13812
G0 F3000 X119.319 Y109.98
G1 F1200 X118.076 Y109.827 E2.17978
G1 X117.928 Y109.779 E2.18495
G1 X116.826 Y109.025 E2.22936
G1 X116.718 Y108.907 E2.23468
G1 X116.06 Y107.648 E2.28193
G1 X116.06 Y106.16 E2.33142
G1 X116.718 Y104.901 E2.37867
G1 X116.827 Y104.782 E2.38404
G1 X117.934 Y104.031 E2.42853
G1 X118.129 Y103.972 E2.43531
G1 X119.354 Y103.821 E2.47636
G1 X119.552 Y103.841 E2.48298
G1 X120.781 Y104.313 E2.52677
G1 X120.941 Y104.432 E2.5334
G1 X121.797 Y105.396 E2.57628
G1 X121.877 Y105.559 E2.58232
G1 X122.18 Y106.8 E2.6248
G1 X122.18 Y107.008 E2.63172
G1 X121.871 Y108.268 E2.67487
G1 X121.781 Y108.433 E2.68112
G1 X120.938 Y109.38 E2.72329
G1 X120.771 Y109.5 E2.73013
G1 X119.566 Y109.959 E2.77302
G1 X119.319 Y109.98 E2.78126
G1 F1800 E-4.21874
G1 F300 Z0.4
G0 F3000 X133.601 Y118.343 Z0.4
G1 F300 Z0.2
G1 F1800 E2.78126
G1 F1200 X133.811 Y118.141 E2.79096
G1 X134.024 Y118.025 E2.79902
G1 X134.392 Y117.956 E2.81148
G1 X137.088 Y117.956 E2.90114
G1 X137.088 Y84.956 E3.99873
G1 X111.088 Y84.956 E4.86349
G1 X111.088 Y117.956 E5.96108
G1 X113.555 Y117.956 E6.04313
G1 X113.913 Y118.101 E6.05598
G1 X114.109 Y118.258 E6.06433
G1 X114.292 Y118.519 E6.07493
G1 X114.392 Y118.869 E6.08704
G1 X114.393 Y132.755 E6.54889
G1 X133.392 Y132.756 E7.1808
G1 X133.392 Y118.871 E7.64261
G1 X133.455 Y118.605 E7.65171
G1 X133.601 Y118.343 E7.66168
G1 F1800 E0.66168
G0 F3000 X133.494 Y118.343
G0 X133.22 Y132.584
G0 X114.565 Y132.583
G0 X114.294 Y118.693
G0 X113.932 Y118.693
G1 F1800 E7.66168
G1 F1200 X113.988 Y118.881 E7.66821
G1 X113.993 Y133.155 E8.14296
G1 X133.792 Y133.156 E8.80148
G1 X133.796 Y118.881 E9.27627
G1 X133.917 Y118.588 E9.28681
G1 X134.171 Y118.397 E9.29738
G1 X134.392 Y118.356 E9.30486
G1 X137.488 Y118.356 E9.40783
G1 X137.488 Y84.556 E10.53202
G1 X110.688 Y84.556 E11.4234
G1 X110.688 Y118.356 E12.54759
G1 X113.493 Y118.356 E12.64088
G1 X113.734 Y118.462 E12.64964
G1 X113.932 Y118.693 E12.65976
G1 F1800 E5.65976
G1 F300 Z0.4
G0 F3000 X123.498 Y130.805 Z0.4
G1 F300 Z0.2
G1 F1800 E12.65976
G1 F1200 X123.117 Y130.736 E12.67264
G1 X121.565 Y130.148 E12.72784
G1 X121.275 Y129.993 E12.73877
G1 X119.96 Y128.51 E12.8047
G1 X119.844 Y128.207 E12.81549
G1 X119.434 Y126.529 E12.87294
G1 X119.434 Y126.183 E12.88445
G1 X119.844 Y124.502 E12.942
G1 X119.961 Y124.195 E12.95292
G1 X121.228 Y122.769 E13.01637
G1 X121.468 Y122.603 E13.02608
G1 X123.219 Y121.936 E13.0884
G1 X123.507 Y121.908 E13.09802
G1 X125.29 Y122.121 E13.15775
G1 X125.618 Y122.238 E13.16933
G1 X127.143 Y123.284 E13.23083
G1 X127.326 Y123.487 E13.23992
G1 X128.235 Y125.221 E13.30504
G1 X128.371 Y126.358 E13.34313
G1 X128.25 Y127.357 E13.3766
G1 X128.151 Y127.648 E13.38682
G1 X127.306 Y129.264 E13.44747
G1 X127.059 Y129.485 E13.4585
G1 X125.691 Y130.425 E13.5137
G1 X125.297 Y130.586 E13.52786
G1 X123.498 Y130.805 E13.58814
G0 F3000 X123.472 Y130.4
G1 F1200 X123.259 Y130.362 E13.59533
G1 X121.569 Y129.722 E13.65544
G1 X120.268 Y128.256 E13.72063
G1 X119.828 Y126.46 E13.78213
G1 X119.828 Y126.252 E13.78905
G1 X120.269 Y124.452 E13.85069
G1 X121.57 Y122.986 E13.91588
G1 X123.339 Y122.322 E13.97873
G1 X123.472 Y122.303 E13.98319
G1 X125.224 Y122.516 E14.04189
G1 X125.421 Y122.586 E14.04885
G1 X126.904 Y123.614 E14.10886
G1 X126.991 Y123.711 E14.1132
G1 X127.847 Y125.342 E14.17446
G1 X127.964 Y126.356 E14.20841
G1 X127.847 Y127.365 E14.2422
G1 X126.956 Y129.07 E14.30618
G1 X125.464 Y130.095 E14.36639
G1 X125.228 Y130.192 E14.37487
G1 X123.472 Y130.4 E14.43369
G0 F3000 X123.442 Y130.004
;TYPE:WALL-OUTER
G1 F1200 X121.813 Y129.386 E14.49164
G1 X120.63 Y128.052 E14.55094
G1 X120.213 Y126.356 E14.60903
G1 X120.63 Y124.655 E14.66728
G1 X121.805 Y123.326 E14.72628
G1 X123.45 Y122.703 E14.78479
G1 X125.197 Y122.915 E14.84332
G1 X126.649 Y123.919 E14.90203
G1 X127.459 Y125.463 E14.96002
G1 X127.564 Y126.356 E14.98993
G1 X127.459 Y127.245 E15.0197
G1 X126.637 Y128.803 E15.07829
G1 X125.197 Y129.793 E15.13641
G1 X123.442 Y130.004 E15.19521
G0 F3000 X123.255 Y129.934
G1 F1800 E8.19521
G1 F300 Z0.4
G0 F3000 X123.042 Y130.495 Z0.4
G0 X113.591 Y118.931
G1 F300 Z0.2
G1 F1800 E15.19521
G1 F1200 X113.593 Y133.555 E15.6816
G1 X134.192 Y133.556 E16.36673
G1 X134.193 Y118.9 E16.85419
G1 X134.264 Y118.801 E16.85824
G1 X134.392 Y118.756 E16.86275
G1 X137.888 Y118.756 E16.97903
G1 X137.888 Y84.156 E18.12983
G1 X110.288 Y84.156 E19.04781
G1 X110.288 Y118.756 E20.19861
G1 X113.453 Y118.756 E20.30388
G1 X113.561 Y118.847 E20.30858
G1 X113.591 Y118.931 E20.31154
G0 F3000 X113.591 Y119.131
G1 F1800 E13.31154
G1 F300 Z0.4
G0 F3000 X119.411 Y109.588 Z0.4
G1 F300 Z0.2
G1 F1800 E20.31154
G1 F1200 X118.129 Y109.432 E20.3545
G1 X117.058 Y108.695 E20.39774
G1 X116.465 Y107.549 E20.44065
G1 X116.465 Y106.259 E20.48356
G1 X117.058 Y105.112 E20.52651
G1 X118.122 Y104.381 E20.56944
G1 X119.418 Y104.215 E20.6129
G1 X120.628 Y104.68 E20.65601
G1 X121.488 Y105.646 E20.69903
G1 X121.795 Y106.904 E20.7421
G1 X121.482 Y108.168 E20.78541
G1 X120.626 Y109.129 E20.82822
G1 X119.411 Y109.588 E20.87141
G0 F3000 X119.213 Y109.564
G1 F1800 E13.87141
G1 F300 Z0.4
G0 F3000 X130.027 Y95.1 Z0.4
G1 F300 Z0.2
G1 F1800 E20.87141
G1 F1200 X128.7 Y94.935 E20.91589
G1 X127.592 Y94.168 E20.96071
G1 X126.974 Y92.992 E21.0049
G1 X126.976 Y91.632 E21.05013
G1 X127.607 Y90.444 E21.09487
G1 X128.704 Y89.697 E21.13901
G1 X130.038 Y89.527 E21.18374
G1 X131.287 Y90.008 E21.22826
G1 X132.186 Y91.019 E21.27325
G1 X132.503 Y92.312 E21.31753
G1 X132.183 Y93.621 E21.36235
G1 X131.293 Y94.618 E21.4068
G1 X130.027 Y95.1 E21.45186
G0 F3000 X129.829 Y95.076
G1 F1800 E14.45186
G1 F300 Z0.4
G0 F3000 X123.504 Y131.184 Z0.4
;TYPE:SKIN
G1 F300 Z0.2
G1 F1800 E21.45186
G1 F1200 X125.371 Y130.96 E21.5144
G1 X125.873 Y130.753 E21.53246
G1 X127.27 Y129.797 E21.58876
G1 X127.516 Y129.583 E21.59961
G1 X127.702 Y129.321 E21.6103
G1 X128.486 Y127.821 E21.66659
G1 X128.622 Y127.419 E21.6807
G1 X128.752 Y126.352 E21.71646
G1 X128.603 Y125.107 E21.75816
G1 X127.65 Y123.287 E21.82649
G1 X127.374 Y122.978 E21.84027
G1 X125.795 Y121.901 E21.90384
G1 X125.356 Y121.748 E21.9193
G1 X123.481 Y121.516 E21.98214
G1 X123.07 Y121.584 E21.996
G1 X121.349 Y122.232 E22.05716
G1 X120.91 Y122.556 E22.07531
G1 X119.772 Y123.836 E22.13227
G1 X119.608 Y124.068 E22.14172
G1 X119.469 Y124.416 E22.15419
G1 X119.061 Y126.096 E22.21169
G1 X119.058 Y126.599 E22.22842
G1 X119.469 Y128.288 E22.28623
G1 X119.595 Y128.614 E22.29786
G1 X119.772 Y128.868 E22.30816
G1 X120.882 Y130.125 E22.36393
G1 X121.107 Y130.326 E22.37397
G1 X121.402 Y130.489 E22.38518
G1 X122.973 Y131.088 E22.4411
G1 X123.504 Y131.184 E22.45904
G1 F1800 E15.45904
G1 F300 Z0.4
G0 F3000 X133.123 Y118.404 Z0.4
G1 F300 Z0.2
G1 F1800 E22.45904
G1 F1200 X133.014 Y118.816 E22.47322
G1 X133.012 Y132.375 E22.92419
G1 X114.773 Y132.372 E23.53083
G1 X114.772 Y118.935 E23.97774
G1 X114.738 Y118.657 E23.98706
G1 X114.629 Y118.341 E23.99817
G1 X114.38 Y117.988 E24.01254
G1 X114.161 Y117.81 E24.02193
G1 X113.639 Y117.581 E24.04089
G1 X111.468 Y117.576 E24.1131
G1 X111.468 Y85.336 E25.1854
G1 X136.708 Y85.336 E26.02489
G1 X136.708 Y117.576 E27.0972
G1 X134.355 Y117.579 E27.17546
G1 X133.891 Y117.668 E27.19117
G1 X133.581 Y117.833 E27.20285
G1 X133.297 Y118.109 E27.21602
G1 X133.123 Y118.404 E27.22741
G1 F1800 E20.22741
G1 F300 Z0.4
G0 F3000 X119.781 Y110.708 Z0.4
G1 F300 Z0.2
G1 F1800 E27.22741
G1 F1200 X121.151 Y110.193 E27.27609
G1 X121.493 Y109.927 E27.2905
G1 X122.349 Y108.967 E27.33328
G1 X122.605 Y108.525 E27.35027
G1 X122.946 Y107.147 E27.39749
G1 X122.946 Y106.657 E27.41378
G1 X122.611 Y105.269 E27.46128
G1 X122.431 Y104.933 E27.47395
G1 X121.441 Y103.821 E27.52347
G1 X121.135 Y103.617 E27.5357
G1 X119.812 Y103.103 E27.58291
G1 X119.303 Y103.04 E27.59997
G1 X118.035 Y103.197 E27.64247
G1 X117.538 Y103.351 E27.65977
G1 X116.335 Y104.17 E27.70818
G1 X116.067 Y104.454 E27.72116
G1 X115.434 Y105.671 E27.76679
G1 X115.325 Y105.952 E27.77681
G1 X115.28 Y106.304 E27.78862
G1 X115.281 Y107.528 E27.82933
G1 X115.314 Y107.815 E27.83894
G1 X115.434 Y108.133 E27.85024
G1 X116.054 Y109.325 E27.89493
G1 X116.3 Y109.604 E27.9073
G1 X117.555 Y110.47 E27.95801
G1 X117.9 Y110.586 E27.97012
G1 X119.215 Y110.751 E28.0142
G1 X119.781 Y110.708 E28.03308
G1 F1800 E21.03308
G1 F300 Z0.4
G0 F3000 X129.922 Y96.272 Z0.4
G1 F300 Z0.2
G1 F1800 E28.03308
G1 F1200 X130.302 Y96.257 E28.04573
G1 X131.776 Y95.699 E28.09815
G1 X132.114 Y95.466 E28.1118
G1 X133.026 Y94.446 E28.15731
G1 X133.204 Y94.196 E28.16752
G1 X133.336 Y93.868 E28.17928
G1 X133.654 Y92.555 E28.22421
G1 X133.651 Y92.052 E28.24094
G1 X133.343 Y90.78 E28.28447
G1 X133.205 Y90.433 E28.29689
G1 X133.041 Y90.197 E28.30645
G1 X132.206 Y89.251 E28.34842
G1 X131.979 Y89.052 E28.35846
G1 X131.663 Y88.88 E28.37043
G1 X130.338 Y88.378 E28.41755
G1 X129.981 Y88.348 E28.42947
G1 X128.537 Y88.522 E28.47784
G1 X128.259 Y88.602 E28.48746
G1 X128.007 Y88.734 E28.49693
G1 X126.949 Y89.463 E28.53966
G1 X126.615 Y89.782 E28.55502
G1 X125.879 Y91.18 E28.60757
G1 X125.797 Y91.55 E28.62017
G1 X125.788 Y93.099 E28.6717
G1 X125.888 Y93.442 E28.68358
G1 X126.586 Y94.781 E28.7338
G1 X126.853 Y95.088 E28.74733
G1 X128.025 Y95.905 E28.79485
G1 X128.501 Y96.098 E28.81194
G1 X129.922 Y96.272 E28.85955
G1 F1800 E21.85955
G1 F300 Z0.4
G0 F3000 X136.448 Y85.536 Z0.4
G1 F300 Z0.2
G1 F1800 E28.85955
G1 F1200 X136.508 Y85.597 E28.8624
G0 F3000 X136.508 Y86.162
G1 F1200 X135.882 Y85.536 E28.89184
G0 F3000 X135.316 Y85.536
G1 F1200 X136.508 Y86.728 E28.94791
G0 F3000 X136.508 Y87.294
G1 F1200 X134.751 Y85.536 E29.03058
G0 F3000 X134.185 Y85.536
G1 F1200 X136.508 Y87.859 E29.13984
G0 F3000 X136.508 Y88.425
G1 F1200 X133.619 Y85.536 E29.27573
G0 F3000 X133.053 Y85.536
G1 F1200 X136.508 Y88.991 E29.43825
G0 F3000 X136.508 Y89.556
G1 F1200 X132.488 Y85.536 E29.62733
G0 F3000 X131.922 Y85.536
G1 F1200 X136.508 Y90.122 E29.84305
G0 F3000 X136.508 Y90.688
G1 F1200 X131.356 Y85.536 E30.08538
G0 F3000 X130.791 Y85.536
G1 F1200 X136.508 Y91.254 E30.35431
G0 F3000 X136.508 Y91.819
G1 F1200 X130.225 Y85.536 E30.64985
G0 F3000 X129.659 Y85.536
G1 F1200 X136.508 Y92.385 E30.972
G0 F3000 X136.508 Y92.951
G1 F1200 X129.094 Y85.536 E31.32076
G0 F3000 X128.528 Y85.536
G1 F1200 X131.654 Y88.662 E31.4678
G1 X131.724 Y88.732
G0 F3000 X131.557 Y89.141
G0 X130.574 Y88.767
G0 X130.745 Y88.318
G1 F1200 X127.962 Y85.536 E31.59868
G0 F3000 X127.397 Y85.536
G1 F1200 X130.013 Y88.152 E31.72172
G0 F3000 X129.497 Y88.202
G1 F1200 X126.831 Y85.536 E31.84713
G0 F3000 X126.265 Y85.536
G1 F1200 X128.994 Y88.265 E31.97549
G0 F3000 X128.492 Y88.328
G1 F1200 X125.7 Y85.536 E32.10682
G0 F3000 X125.134 Y85.536
G1 F1200 X128.072 Y88.474 E32.24501
G0 F3000 X127.721 Y88.689
G1 F1200 X124.568 Y85.536 E32.39332
G0 F3000 X124.002 Y85.536
G1 F1200 X127.385 Y88.919 E32.55244
G0 F3000 X127.049 Y89.148
G1 F1200 X123.437 Y85.536 E32.72234
G0 F3000 X122.871 Y85.536
G1 F1200 X126.735 Y89.4 E32.90409
G0 F3000 X126.448 Y89.679
G1 F1200 X122.305 Y85.536 E33.09897
G0 F3000 X121.74 Y85.536
G1 F1200 X126.25 Y90.047 E33.31113
G0 F3000 X126.056 Y90.418
G1 F1200 X121.174 Y85.536 E33.54076
G0 F3000 X120.608 Y85.536
G1 F1200 X125.861 Y90.789 E33.78785
G0 F3000 X125.678 Y91.172
G1 F1200 X120.043 Y85.536 E34.05292
G0 F3000 X119.477 Y85.536
G1 F1200 X125.598 Y91.657 E34.34084
G0 F3000 X125.596 Y92.221
G1 F1200 X118.911 Y85.536 E34.65528
G0 F3000 X118.346 Y85.536
G1 F1200 X125.595 Y92.785 E34.99625
G0 F3000 X125.685 Y93.441
G1 F1200 X117.78 Y85.536 E35.36808
G0 F3000 X117.214 Y85.536
G1 F1200 X126.254 Y94.576 E35.79329
G1 X126.324 Y94.646
G0 F3000 X126.723 Y94.437
G0 X127.64 Y95.296
G0 X127.368 Y95.689
G1 F1200 X136.508 Y104.83 E36.22323
G0 F3000 X136.508 Y105.396
G1 F1200 X116.649 Y85.536 E37.15736
G0 F3000 X116.083 Y85.536
G1 F1200 X136.508 Y105.961 E38.11809
G0 F3000 X136.508 Y106.527
G1 F1200 X115.517 Y85.536 E39.10544
G0 F3000 X114.952 Y85.536
G1 F1200 X136.508 Y107.093 E40.11939
G0 F3000 X136.508 Y107.658
G1 F1200 X114.386 Y85.536 E41.15994
G0 F3000 X113.82 Y85.536
G1 F1200 X136.508 Y108.224 E42.22712
G0 F3000 X136.508 Y108.79
G1 F1200 X113.254 Y85.536 E43.32092
G0 F3000 X112.689 Y85.536
G1 F1200 X136.508 Y109.355 E44.44129
G0 F3000 X136.508 Y109.921
G1 F1200 X112.123 Y85.536 E45.58828
G0 F3000 X111.668 Y85.646
G1 F1200 X136.508 Y110.487 E46.7567
G0 F3000 X136.508 Y111.053
