;FLAVOR:Marlin
;TIME:6287
;Filament used: 4.3326m
;Layer height: 0.2
;MINX:69.696
;MINY:73.769
;MINZ:0.2
;MAXX:150.304
;MAXY:146.231
;MAXZ:31.4
;TARGET_MACHINE.NAME:Anycubic Mega Zero
;Generated with Cura_SteamEngine 5.8.1
M82 ;absolute extrusion mode
;Sliced at: Wed 18-09-2024 19:44:03
;Basic settings: Layer height: 0.2 Walls: 1 Fill: 35
G21 ;metric values
G90 ;absolute positioning
M82 ;set extruder to absolute mode
M107 ;start with the fan off
M117 Start heating ...
M104 S200
M117 Homing X/Y ...
G28 X0 Y0 ;move X/Y to min endstops
M117 Homing Z ...
G28 Z0 ;move Z to min endstops
G1 Z15.0 F100 ;move the platform down 15mm
M117 Heating ...
M109 S200
M117 Start cleaning ...
G92 E0 ;zero the extruded length
G1 F200 E10 ;extrude 10mm of feed stock
G92 E0 ;zero the extruded length again
M117 Intro line ...
G1 Z2.0 F3000 ; Move Z Axis up little to prevent scratching of Heat Bed
G1 X0.1 Y20 Z0.2 F5000.0 ; Move to start position
G1 X0.1 Y200.0 Z0.2 F1500.0 E15 ; Draw the first line
G1 X0.4 Y200.0 Z0.2 F5000.0 ; Move to side a little
G1 X0.4 Y20 Z0.3 F1500.0 E30 ; Draw the second line
G92 E0 ; Reset Extruder
G1 E-1 F500 ; Retract filiment by 1 mm
G1 Z2.0 F3000 ; Move Z Axis up little to prevent scratching of Heat Bed
G1 X5 Y20 Z0.3 F100 ; Move over to prevent blob squish
G1 F100
G92 E0 ; Reset Extruder
M117 Printing...

G92 E0
G92 E0
G1 F1800 E-7
;LAYER_COUNT:157
;LAYER:0
M107
G1 F300 Z0.4
G0 F3000 X71.431 Y115.951 Z0.4
;TYPE:SKIRT
G1 F300 Z0.2
G1 F1800 E0
G1 F1200 X72.049 Y115.598 E0.02367
G1 X72.983 Y115.173 E0.0578
G1 X75.457 Y114.01 E0.14873
G1 X77.875 Y112.788 E0.23884
G1 X80.263 Y111.496 E0.32914
G1 X82.619 Y110.134 E0.41965
G1 X84.919 Y108.714 E0.50956
G1 X87.192 Y107.222 E0.59999
G1 X89.405 Y105.676 E0.68978
G1 X91.595 Y104.054 E0.78042
G1 X93.731 Y102.376 E0.87076
G1 X95.813 Y100.643 E0.96086
G1 X97.859 Y98.839 E1.05158
G1 X99.845 Y96.988 E1.14188
G1 X101.8 Y95.057 E1.23327
G1 X103.647 Y93.126 E1.32215
G1 X105.492 Y91.086 E1.41363
G1 X107.239 Y89.041 E1.50309
G1 X108.955 Y86.914 E1.59399
G1 X110.582 Y84.774 E1.6834
G1 X112.153 Y82.584 E1.77304
G1 X113.7 Y80.293 E1.86499
G1 X115.128 Y78.042 E1.95365
G1 X116.508 Y75.729 E2.04323
G1 X116.919 Y75.165 E2.06644
G1 X117.369 Y74.72 E2.08749
G1 X117.879 Y74.355 E2.10835
G1 X118.383 Y74.098 E2.12717
G1 X118.995 Y73.889 E2.14868
G1 X119.881 Y73.772 E2.1784
G1 X145.655 Y73.769 E3.03565
G1 X146.387 Y73.781 E3.06
G1 X147.047 Y73.852 E3.08208
G1 X147.597 Y73.998 E3.101
G1 X148.171 Y74.248 E3.12183
G1 X148.652 Y74.55 E3.14072
G1 X149.224 Y75.058 E3.16616
G1 X149.614 Y75.551 E3.18707
G1 X149.924 Y76.102 E3.2081
G1 X150.143 Y76.694 E3.22909
G1 X150.258 Y77.251 E3.24801
G1 X150.303 Y78.009 E3.27326
G1 X150.304 Y112.194 E4.41026
G1 X150.294 Y112.895 E4.43358
G1 X150.205 Y113.675 E4.45969
G1 X149.964 Y114.801 E4.49799
G1 X149.414 Y117.543 E4.591
G1 X148.961 Y120.192 E4.68039
G1 X148.582 Y122.861 E4.77005
G1 X148.277 Y125.557 E4.86029
G1 X148.043 Y128.3 E4.95186
G1 X147.893 Y130.972 E5.04087
G1 X147.806 Y135.059 E5.17683
G1 X147.806 Y139.137 E5.31247
G1 X147.794 Y139.898 E5.33778
G1 X147.723 Y140.558 E5.35986
G1 X147.556 Y141.166 E5.38083
G1 X147.295 Y141.742 E5.40186
G1 X146.947 Y142.268 E5.42284
G1 X146.521 Y142.734 E5.44384
G1 X146.079 Y143.089 E5.4627
G1 X145.48 Y143.435 E5.4857
G1 X144.948 Y143.637 E5.50463
G1 X144.288 Y143.777 E5.52707
G1 X143.844 Y143.814 E5.54189
G1 X123.651 Y143.817 E6.21351
G1 X122.772 Y143.802 E6.24275
G1 X119.537 Y143.521 E6.35075
G1 X116.852 Y143.371 E6.4402
G1 X114.101 Y143.294 E6.53173
G1 X111.427 Y143.294 E6.62067
G1 X108.674 Y143.373 E6.71227
G1 X105.968 Y143.528 E6.80242
G1 X103.264 Y143.756 E6.89267
G1 X100.602 Y144.06 E6.98179
G1 X97.887 Y144.447 E7.073
G1 X95.196 Y144.91 E7.16382
G1 X92.55 Y145.441 E7.25358
G1 X89.5 Y146.135 E7.35762
G1 X88.807 Y146.224 E7.38086
G1 X74.352 Y146.231 E7.86163
G1 X73.62 Y146.22 E7.88598
G1 X72.958 Y146.15 E7.90812
G1 X72.349 Y145.983 E7.92913
G1 X71.774 Y145.722 E7.95013
G1 X71.247 Y145.375 E7.97111
G1 X70.781 Y144.948 E7.99214
G1 X70.388 Y144.453 E8.01316
G1 X70.078 Y143.904 E8.03413
G1 X69.859 Y143.312 E8.05512
G1 X69.736 Y142.717 E8.07533
G1 X69.699 Y142.264 E8.09045
G1 X69.696 Y119.871 E8.83524
G1 X69.708 Y119.147 E8.85933
G1 X69.779 Y118.487 E8.8814
G1 X69.925 Y117.937 E8.90033
G1 X70.147 Y117.416 E8.91917
G1 X70.557 Y116.776 E8.94445
G1 X70.984 Y116.311 E8.96544
G1 X71.431 Y115.951 E8.98453
G0 F3000 X71.682 Y116.263
G1 F1200 X72.215 Y115.962 E9.00489
G1 X73.149 Y115.537 E9.03902
G1 X75.627 Y114.372 E9.13009
G1 X78.065 Y113.14 E9.22095
G1 X80.453 Y111.848 E9.31125
G1 X82.819 Y110.48 E9.40215
G1 X85.129 Y109.054 E9.49244
G1 X87.421 Y107.55 E9.58362
G1 X89.634 Y106.004 E9.67341
G1 X91.842 Y104.369 E9.76479
G1 X93.978 Y102.691 E9.85514
G1 X96.078 Y100.943 E9.94601
G1 X98.124 Y99.139 E10.03674
G1 X100.118 Y97.281 E10.12739
G1 X102.081 Y95.342 E10.21916
G1 X103.936 Y93.403 E10.30841
G1 X105.789 Y91.354 E10.40029
G1 X107.543 Y89.301 E10.4901
G1 X109.266 Y87.165 E10.58138
G1 X110.907 Y85.007 E10.67155
G1 X112.485 Y82.808 E10.76157
G1 X114.032 Y80.517 E10.85352
G1 X115.472 Y78.247 E10.94293
G1 X116.852 Y75.934 E11.03251
G1 X117.203 Y75.447 E11.05248
G1 X117.604 Y75.044 E11.07138
G1 X118.064 Y74.71 E11.09029
G1 X118.512 Y74.477 E11.10709
G1 X119.087 Y74.281 E11.12729
G1 X119.933 Y74.169 E11.15568
G1 X145.649 Y74.169 E12.01099
G1 X146.347 Y74.179 E12.03421
G1 X146.944 Y74.239 E12.05417
G1 X147.494 Y74.385 E12.07309
G1 X147.958 Y74.587 E12.08993
G1 X148.439 Y74.889 E12.10882
G1 X148.912 Y75.308 E12.12983
G1 X149.267 Y75.75 E12.14869
G1 X149.55 Y76.244 E12.16762
G1 X149.751 Y76.775 E12.18651
G1 X149.866 Y77.332 E12.20542
G1 X149.903 Y78.009 E12.22798
G1 X149.904 Y112.188 E13.36477
G1 X149.894 Y112.889 E13.38809
G1 X149.814 Y113.591 E13.41159
G1 X149.573 Y114.717 E13.44989
G1 X149.022 Y117.464 E13.54308
G1 X148.567 Y120.125 E13.63287
G1 X148.186 Y122.805 E13.7229
G1 X147.878 Y125.523 E13.81388
G1 X147.645 Y128.266 E13.90544
G1 X147.493 Y130.963 E13.99528
G1 X147.406 Y135.05 E14.13125
G1 X147.406 Y139.131 E14.26698
G1 X147.396 Y139.858 E14.29117
G1 X147.336 Y140.455 E14.31112
G1 X147.19 Y141.004 E14.33002
G1 X146.959 Y141.524 E14.34894
G1 X146.65 Y142 E14.36782
G1 X146.268 Y142.424 E14.3868
G1 X145.877 Y142.744 E14.4036
G1 X145.334 Y143.062 E14.42453
G1 X144.863 Y143.246 E14.44135
G1 X144.255 Y143.378 E14.46204
G1 X143.811 Y143.415 E14.47686
G1 X123.658 Y143.417 E15.14716
G1 X122.806 Y143.403 E15.1755
G1 X119.571 Y143.123 E15.2835
G1 X116.863 Y142.971 E15.37371
G1 X114.112 Y142.894 E15.46524
G1 X111.416 Y142.894 E15.55491
G1 X108.663 Y142.973 E15.64651
G1 X105.934 Y143.129 E15.73743
G1 X103.23 Y143.358 E15.82768
G1 X100.546 Y143.664 E15.91753
G1 X97.831 Y144.051 E16.00875
G1 X95.121 Y144.517 E16.10021
G1 X92.461 Y145.051 E16.19044
G1 X89.449 Y145.738 E16.29319
G1 X88.756 Y145.827 E16.31643
G1 X74.357 Y145.831 E16.79535
G1 X73.659 Y145.822 E16.81856
G1 X73.061 Y145.763 E16.83855
G1 X72.511 Y145.617 E16.85748
G1 X71.991 Y145.386 E16.8764
G1 X71.515 Y145.078 E16.89526
G1 X71.092 Y144.697 E16.91419
G1 X70.735 Y144.254 E16.93312
G1 X70.452 Y143.762 E16.95199
G1 X70.25 Y143.23 E16.97092
G1 X70.135 Y142.684 E16.98948
G1 X70.098 Y142.231 E17.0046
G1 X70.096 Y119.877 E17.74809
G1 X70.106 Y119.187 E17.77105
G1 X70.166 Y118.59 E17.791
G1 X70.312 Y118.04 E17.80993
G1 X70.514 Y117.576 E17.82676
G1 X70.854 Y117.044 E17.84776
G1 X71.235 Y116.623 E17.86664
G1 X71.682 Y116.263 E17.88573
G0 F3000 X71.88 Y116.611
G1 F1200 X72.381 Y116.326 E17.9049
G1 X73.315 Y115.901 E17.93903
G1 X75.797 Y114.734 E18.03026
G1 X78.255 Y113.492 E18.12185
G1 X80.643 Y112.2 E18.21216
G1 X83.019 Y110.826 E18.30345
G1 X85.339 Y109.394 E18.39413
G1 X87.65 Y107.878 E18.48605
G1 X89.863 Y106.332 E18.57584
G1 X92.089 Y104.684 E18.66796
G1 X94.225 Y103.006 E18.7583
G1 X96.334 Y101.25 E18.84958
G1 X98.397 Y99.432 E18.94104
G1 X100.391 Y97.574 E19.03169
G1 X102.362 Y95.627 E19.12383
G1 X104.225 Y93.68 E19.21346
G1 X106.086 Y91.622 E19.30575
G1 X107.847 Y89.561 E19.39591
G1 X109.577 Y87.416 E19.48756
G1 X111.232 Y85.24 E19.57849
G1 X112.817 Y83.032 E19.66889
G1 X114.364 Y80.741 E19.76084
G1 X115.816 Y78.452 E19.851
G1 X117.196 Y76.139 E19.94058
G1 X117.489 Y75.727 E19.95739
G1 X117.842 Y75.366 E19.97419
G1 X118.249 Y75.065 E19.99102
G1 X118.697 Y74.832 E20.00782
G1 X119.177 Y74.672 E20.02465
G1 X119.933 Y74.569 E20.05002
G1 X145.643 Y74.569 E20.90514
G1 X146.341 Y74.579 E20.92836
G1 X146.844 Y74.626 E20.94516
G1 X147.334 Y74.752 E20.96199
G1 X147.798 Y74.954 E20.97882
G1 X148.224 Y75.226 E20.99563
G1 X148.602 Y75.561 E21.01243
G1 X148.922 Y75.952 E21.02924
G1 X149.177 Y76.389 E21.04607
G1 X149.36 Y76.86 E21.06287
G1 X149.467 Y77.354 E21.07968
G1 X149.503 Y78.009 E21.1015
G1 X149.504 Y112.182 E22.2381
G1 X149.494 Y112.883 E22.26142
G1 X149.423 Y113.507 E22.28231
G1 X149.182 Y114.633 E22.32061
G1 X148.63 Y117.385 E22.41396
G1 X148.173 Y120.058 E22.50415
G1 X147.79 Y122.749 E22.59456
G1 X147.479 Y125.489 E22.68628
G1 X147.247 Y128.232 E22.77784
G1 X147.093 Y130.954 E22.86851
G1 X147.006 Y135.041 E23.00448
G1 X147.006 Y139.125 E23.14031
G1 X146.996 Y139.852 E23.1645
G1 X146.949 Y140.355 E23.1813
G1 X146.823 Y140.845 E23.19813
G1 X146.622 Y141.309 E23.21495
G1 X146.35 Y141.735 E23.23176
G1 X146.015 Y142.114 E23.24858
G1 X145.624 Y142.434 E23.26538
G1 X145.188 Y142.689 E23.28218
G1 X144.717 Y142.873 E23.299
G1 X144.222 Y142.979 E23.31584
G1 X143.778 Y143.016 E23.33066
G1 X123.664 Y143.017 E23.99965
G1 X122.84 Y143.004 E24.02706
G1 X119.605 Y142.725 E24.13506
G1 X116.874 Y142.571 E24.22604
G1 X114.123 Y142.494 E24.31757
G1 X111.405 Y142.494 E24.40797
G1 X108.652 Y142.573 E24.49957
G1 X105.9 Y142.73 E24.59126
G1 X103.196 Y142.96 E24.68152
G1 X100.49 Y143.268 E24.7721
G1 X97.775 Y143.655 E24.86331
G1 X95.046 Y144.124 E24.95541
G1 X92.372 Y144.661 E25.04612
G1 X89.398 Y145.341 E25.14759
G1 X88.705 Y145.43 E25.17083
G1 X74.362 Y145.431 E25.64788
G1 X73.664 Y145.422 E25.6711
G1 X73.16 Y145.375 E25.68793
G1 X72.67 Y145.25 E25.70475
G1 X72.206 Y145.049 E25.72157
G1 X71.78 Y144.778 E25.73836
G1 X71.401 Y144.443 E25.75519
G1 X71.08 Y144.052 E25.77201
G1 X70.825 Y143.616 E25.78881
G1 X70.641 Y143.145 E25.80563
G1 X70.534 Y142.651 E25.82244
G1 X70.497 Y142.198 E25.83756
G1 X70.496 Y119.883 E26.57976
G1 X70.506 Y119.193 E26.60271
G1 X70.554 Y118.689 E26.61955
G1 X70.679 Y118.2 E26.63634
G1 X70.881 Y117.736 E26.65317
G1 X71.153 Y117.31 E26.66998
G1 X71.489 Y116.932 E26.6868
G1 X71.88 Y116.611 E26.70363
G1 F1800 E19.70363
G1 F300 Z0.4
;MESH:Laser Receiver Box_rev20.stl
G0 F3000 X87.296 Y140.828 Z0.4
;TYPE:WALL-INNER
G1 F300 Z0.2
G1 F1800 E26.70363
G1 F1200 X87.296 Y120.628 E27.37548
G1 X75.096 Y120.628 E27.78126
G1 X75.096 Y140.828 E28.45311
G1 X87.296 Y140.828 E28.85889
G0 F3000 X87.696 Y141.228
G1 F1200 X87.696 Y120.228 E29.55735
G1 X74.696 Y120.228 E29.98973
G1 X74.696 Y141.228 E30.68819
G1 X87.696 Y141.228 E31.12057
G0 F3000 X88.096 Y141.628
G1 F1200 X88.096 Y119.828 E31.84565
G1 X74.296 Y119.828 E32.30464
G1 X74.296 Y141.628 E33.02971
G1 X88.096 Y141.628 E33.4887
G0 F3000 X88.496 Y142.028
;TYPE:WALL-OUTER
G1 F1200 X88.496 Y119.428 E34.24038
G1 X73.896 Y119.428 E34.72597
G1 X73.896 Y142.028 E35.47765
G1 X88.496 Y142.028 E35.96325
G0 F3000 X88.496 Y141.828
G0 X87.826 Y141.361
G0 X87.196 Y140.448
G0 X86.916 Y140.448
;TYPE:SKIN
G1 F1200 X75.476 Y140.448 E36.34375
G1 X75.476 Y121.008 E36.99032
G1 X86.916 Y121.008 E37.37082
G1 X86.916 Y140.448 E38.0174
G0 F3000 X87.196 Y140.448
G0 X75.759 Y140.728
G0 X75.759 Y140.248
G1 F1200 X75.676 Y140.164 E38.02132
G0 F3000 X75.676 Y139.598
G1 F1200 X76.325 Y140.248 E38.05187
G0 F3000 X76.891 Y140.248
G1 F1200 X75.676 Y139.033 E38.10902
G0 F3000 X75.676 Y138.467
G1 F1200 X77.456 Y140.248 E38.19277
G0 F3000 X78.022 Y140.248
G1 F1200 X75.676 Y137.901 E38.30315
G0 F3000 X75.676 Y137.336
G1 F1200 X78.588 Y140.248 E38.44012
G0 F3000 X79.154 Y140.248
G1 F1200 X75.676 Y136.77 E38.60371
G0 F3000 X75.676 Y136.204
G1 F1200 X79.719 Y140.248 E38.79391
G0 F3000 X80.285 Y140.248
G1 F1200 X75.676 Y135.639 E39.0107
G0 F3000 X75.676 Y135.073
G1 F1200 X80.851 Y140.248 E39.25411
G0 F3000 X81.416 Y140.248
G1 F1200 X75.676 Y134.507 E39.52413
G0 F3000 X75.676 Y133.942
G1 F1200 X81.982 Y140.248 E39.82075
G0 F3000 X82.548 Y140.248
G1 F1200 X75.676 Y133.376 E40.14398
G0 F3000 X75.676 Y132.81
G1 F1200 X83.113 Y140.248 E40.49382
G0 F3000 X83.679 Y140.248
G1 F1200 X75.676 Y132.245 E40.87026
G0 F3000 X75.676 Y131.679
G1 F1200 X84.245 Y140.248 E41.27332
G0 F3000 X84.81 Y140.248
G1 F1200 X75.676 Y131.113 E41.70298
G0 F3000 X75.676 Y130.547
G1 F1200 X85.376 Y140.248 E42.15926
G0 F3000 X85.942 Y140.248
G1 F1200 X75.676 Y129.982 E42.64214
G0 F3000 X75.676 Y129.416
G1 F1200 X86.507 Y140.248 E43.15162
G0 F3000 X86.716 Y139.89
G1 F1200 X75.676 Y128.85 E43.67091
G0 F3000 X75.676 Y128.285
G1 F1200 X86.716 Y139.325 E44.19019
G0 F3000 X86.716 Y138.759
G1 F1200 X75.676 Y127.719 E44.70948
G0 F3000 X75.676 Y127.153
G1 F1200 X86.716 Y138.193 E45.22877
G0 F3000 X86.716 Y137.628
G1 F1200 X75.676 Y126.588 E45.74806
G0 F3000 X75.676 Y126.022
G1 F1200 X86.716 Y137.062 E46.26735
G0 F3000 X86.716 Y136.496
G1 F1200 X75.676 Y125.456 E46.78663
G0 F3000 X75.676 Y124.891
G1 F1200 X86.716 Y135.931 E47.30592
G0 F3000 X86.716 Y135.365
G1 F1200 X75.676 Y124.325 E47.82521
G0 F3000 X75.676 Y123.759
G1 F1200 X86.716 Y134.799 E48.3445
G0 F3000 X86.716 Y134.234
G1 F1200 X75.676 Y123.194 E48.86378
G0 F3000 X75.676 Y122.628
G1 F1200 X86.716 Y133.668 E49.38307
G0 F3000 X86.716 Y133.102
G1 F1200 X75.676 Y122.062 E49.90236
G0 F3000 X75.676 Y121.497
G1 F1200 X86.716 Y132.537 E50.42165
G0 F3000 X86.716 Y131.971
G1 F1200 X75.953 Y121.208 E50.92791
G0 F3000 X76.519 Y121.208
G1 F1200 X86.716 Y131.405 E51.40754
G0 F3000 X86.716 Y130.84
G1 F1200 X77.085 Y121.208 E51.86058
G0 F3000 X77.65 Y121.208
G1 F1200 X86.716 Y130.274 E52.28701
G0 F3000 X86.716 Y129.708
G1 F1200 X78.216 Y121.208 E52.68683
G0 F3000 X78.782 Y121.208
G1 F1200 X86.716 Y129.142 E53.06002
G0 F3000 X86.716 Y128.577
G1 F1200 X79.347 Y121.208 E53.40663
G0 F3000 X79.913 Y121.208
G1 F1200 X86.716 Y128.011 E53.72663
G0 F3000 X86.716 Y127.445
G1 F1200 X80.479 Y121.208 E54.02
G0 F3000 X81.044 Y121.208
G1 F1200 X86.716 Y126.88 E54.28679
G0 F3000 X86.716 Y126.314
G1 F1200 X81.61 Y121.208 E54.52696
G0 F3000 X82.176 Y121.208
G1 F1200 X86.716 Y125.748 E54.74051
G0 F3000 X86.716 Y125.183
G1 F1200 X82.741 Y121.208 E54.92748
G0 F3000 X83.307 Y121.208
G1 F1200 X86.716 Y124.617 E55.08783
G0 F3000 X86.716 Y124.051
G1 F1200 X83.873 Y121.208 E55.22155
G0 F3000 X84.438 Y121.208
G1 F1200 X86.716 Y123.486 E55.3287
G0 F3000 X86.716 Y122.92
G1 F1200 X85.004 Y121.208 E55.40923
G0 F3000 X85.57 Y121.208
G1 F1200 X86.716 Y122.354 E55.46314
G0 F3000 X86.716 Y121.789
G1 F1200 X86.136 Y121.208 E55.49044
G1 X86.066 Y121.138
G0 F3000 X86.066 Y120.431
G1 F1800 E48.49044
G1 F300 Z0.4
G0 F3000 X86.066 Y120.431 Z0.4
G0 X124.396 Y124.768
;TYPE:WALL-INNER
G1 F300 Z0.2
G1 F1800 E55.49044
G1 F1230.8 X124.396 Y137.947 E55.91782
G1 F1061.9 X124.458 Y138.362 E55.93359
G0 F3000 X125.434 Y138.258
G1 F1200 X125.239 Y138.016 E55.94393
G1 X125.188 Y137.85 E55.9497
G1 X125.188 Y124.768 E56.38481
G1 X125.307 Y124.408 E56.39742
G1 X125.557 Y124.214 E56.40795
G1 X125.788 Y124.168 E56.41578
G1 X141.076 Y124.168 E56.92426
G1 X141.316 Y124.288 E56.93319
G1 X141.486 Y124.485 E56.94184
G1 X141.556 Y124.768 E56.95154
G1 X141.556 Y137.849 E57.38661
G1 X141.511 Y138.001 E57.39188
G1 X141.317 Y138.252 E57.40244
G1 X141.042 Y138.372 E57.41242
G1 X125.788 Y138.372 E57.91977
G1 X125.434 Y138.258 E57.93214
G0 F3000 X125.788 Y138.794
G1 F1081.1 X140.956 Y138.794 E58.49212
G1 F1061.9 X141.133 Y138.787 E58.49878
G0 F3000 X142.324 Y138.336
G1 F943 X142.38 Y137.95 E58.51528
G1 F1059.6 X142.38 Y124.768 E59.01181
G0 F3000 X141.784 Y123.941
G0 X124.667 Y123.928
G1 F1200 X125.249 Y123.475 E59.03634
G1 X125.788 Y123.368 E59.05462
G1 X140.956 Y123.368 E59.55911
G1 X141.348 Y123.424 E59.57228
G1 X141.796 Y123.648 E59.58894
G1 X142.192 Y124.109 E59.60915
G1 F1132.1 X142.38 Y124.768 E59.63331
G1 X142.404 Y124.056 E59.65843
