;FLAVOR:Marlin
;TIME:6036
;Filament used: 4.01497m
;Layer height: 0.2
;MINX:78.679
;MINY:76.324
;MINZ:0.2
;MAXX:141.324
;MAXY:143.665
;MAXZ:31
;TARGET_MACHINE.NAME:Anycubic Mega Zero
;Generated with Cura_SteamEngine 5.8.1
M82 ;absolute extrusion mode
;Sliced at: Mon 30-09-2024 23:47:49
;Basic settings: Layer height: 0.2 Walls: 0.8 Fill: 20
G21 ;metric values
G90 ;absolute positioning
M82 ;set extruder to absolute mode
M107 ;start with the fan off
M117 Start heating ...
M104 S200
M117 Homing X/Y ...
G28 X0 Y0 ;move X/Y to min endstops
M117 Homing Z ...
G28 Z0 ;move Z to min endstops
G1 Z15.0 F100 ;move the platform down 15mm
M117 Heating ...
M109 S200
M117 Start cleaning ...
G92 E0 ;zero the extruded length
G1 F200 E10 ;extrude 10mm of feed stock
G92 E0 ;zero the extruded length again
M117 Intro line ...
G1 Z2.0 F3000 ; Move Z Axis up little to prevent scratching of Heat Bed
G1 X0.1 Y20 Z0.2 F5000.0 ; Move to start position
G1 X0.1 Y200.0 Z0.2 F1500.0 E15 ; Draw the first line
G1 X0.4 Y200.0 Z0.2 F5000.0 ; Move to side a little
G1 X0.4 Y20 Z0.3 F1500.0 E30 ; Draw the second line
G92 E0 ; Reset Extruder
G1 E-1 F500 ; Retract filiment by 1 mm
G1 Z2.0 F3000 ; Move Z Axis up little to prevent scratching of Heat Bed
G1 X5 Y20 Z0.3 F100 ; Move over to prevent blob squish
G1 F100
G92 E0 ; Reset Extruder
M117 Printing...

G92 E0
G92 E0
G1 F1800 E-7
;LAYER_COUNT:155
;LAYER:0
M107
G1 F300 Z0.4
;MESH:laser_detector_rev1.stl
G0 F3000 X133.392 Y88.063 Z0.4
;TYPE:WALL-INNER
G1 F300 Z0.2
G1 F1800 E0
G1 F1200 X131.983 Y87.886 E0.04723
G1 X131.708 Y87.777 E0.05707
G1 X130.534 Y86.966 E0.10453
G1 X130.35 Y86.755 E0.11384
G1 X129.685 Y85.491 E0.16134
G1 X129.608 Y85.228 E0.17046
G1 X129.613 Y83.755 E0.21945
G1 X129.674 Y83.485 E0.22866
G1 X130.375 Y82.151 E0.27878
G1 X130.621 Y81.932 E0.28973
G1 X131.774 Y81.139 E0.33628
G1 X132.039 Y81.067 E0.34541
G1 X133.409 Y80.897 E0.39133
G1 X133.689 Y80.921 E0.40067
G1 X134.963 Y81.405 E0.446
G1 X135.251 Y81.557 E0.45683
G1 X136.289 Y82.725 E0.50881
G1 X136.408 Y83.033 E0.51979
G1 X136.718 Y84.307 E0.5634
G1 X136.718 Y84.653 E0.57491
G1 X136.408 Y85.93 E0.61861
G1 X136.29 Y86.238 E0.62958
G1 X135.279 Y87.371 E0.68009
G1 X135.062 Y87.517 E0.68879
G1 X133.733 Y88.026 E0.73612
G1 X133.392 Y88.063 E0.74753
G0 F3000 X133.414 Y87.664
G1 F1200 X132.074 Y87.497 E0.79244
G1 X131.909 Y87.431 E0.79835
G1 X130.796 Y86.663 E0.84333
G1 X130.685 Y86.536 E0.84894
G1 X130.054 Y85.336 E0.89403
G1 X130.008 Y85.18 E0.89944
G1 X130.011 Y83.797 E0.94544
G1 X130.043 Y83.656 E0.95025
G1 X130.723 Y82.347 E0.99931
G1 X131.872 Y81.557 E1.04569
G1 X132.108 Y81.461 E1.05416
G1 X133.448 Y81.3 E1.09905
G1 X133.661 Y81.338 E1.10625
G1 X134.96 Y81.832 E1.15247
G1 X135.983 Y82.984 E1.20371
G1 X136.324 Y84.376 E1.25138
G1 X136.324 Y84.584 E1.2583
G1 X135.984 Y85.98 E1.30609
G1 X134.969 Y87.118 E1.35681
G1 X133.663 Y87.625 E1.4034
G1 X133.414 Y87.664 E1.41178
G1 F1800 E-5.58822
G1 F300 Z0.4
G0 F3000 X122.784 Y102.555 Z0.4
G1 F300 Z0.2
G1 F1800 E1.41178
G1 F1200 X121.426 Y102.386 E1.4573
G1 X121.145 Y102.278 E1.46731
G1 X120.004 Y101.501 E1.51323
G1 X119.818 Y101.297 E1.52241
G1 X119.135 Y99.99 E1.57146
G1 X119.096 Y99.668 E1.58225
G1 X119.096 Y98.476 E1.62189
G1 X119.135 Y98.155 E1.63265
G1 X119.765 Y96.948 E1.67793
G1 X119.952 Y96.679 E1.68883
G1 X121.073 Y95.908 E1.73408
G1 X121.415 Y95.757 E1.74651
G1 X122.766 Y95.589 E1.79179
G1 X123.094 Y95.623 E1.80276
G1 X124.397 Y96.12 E1.84915
G1 X124.643 Y96.296 E1.85921
G1 X125.543 Y97.305 E1.90418
G1 X125.678 Y97.542 E1.91325
G1 X126.01 Y98.899 E1.95971
G1 X126.01 Y99.245 E1.97122
G1 X125.684 Y100.565 E2.01644
G1 X125.56 Y100.816 E2.02575
G1 X124.629 Y101.858 E2.07223
G1 X124.362 Y102.037 E2.08292
G1 X123.131 Y102.506 E2.12674
G1 X122.784 Y102.555 E2.13839
G0 F3000 X122.911 Y102.163
G1 F1200 X121.512 Y101.995 E2.18526
G1 X121.364 Y101.947 E2.19043
G1 X120.262 Y101.193 E2.23484
G1 X120.154 Y101.075 E2.24016
G1 X119.496 Y99.816 E2.28741
G1 X119.496 Y98.328 E2.3369
G1 X120.19 Y97 E2.38674
G1 X121.42 Y96.154 E2.43639
G1 X122.79 Y95.989 E2.48229
G1 X122.988 Y96.009 E2.48891
G1 X124.216 Y96.476 E2.5326
G1 X124.364 Y96.582 E2.53866
G1 X125.233 Y97.565 E2.5823
G1 X125.313 Y97.727 E2.58831
G1 X125.616 Y98.968 E2.6308
G1 X125.616 Y99.176 E2.63771
G1 X125.306 Y100.432 E2.68074
G1 X125.217 Y100.597 E2.68698
G1 X124.355 Y101.566 E2.73011
G1 X124.195 Y101.674 E2.73653
G1 X122.911 Y102.163 E2.78223
G1 F1800 E-4.21777
G1 F300 Z0.4
G0 F3000 X135.603 Y123.729 Z0.4
G1 F300 Z0.2
G1 F1800 E2.78223
G1 F1200 X135.72 Y124.2 E2.79837
G1 X135.72 Y137.379 E3.23671
G1 X135.408 Y137.926 E3.25765
G1 X135.014 Y138.124 E3.27232
G1 X136.828 Y138.124 E3.33265
G1 X136.828 Y111.083 E4.23204
G1 X136.886 Y110.787 E4.24207
G1 X136.976 Y110.599 E4.24901
G1 X137.191 Y110.352 E4.2599
G1 X137.46 Y110.193 E4.27029
G1 X137.828 Y110.124 E4.28274
G1 X140.524 Y110.124 E4.37241
G1 X140.524 Y77.124 E5.47
G1 X114.524 Y77.124 E6.33476
G1 X114.524 Y110.124 E7.43234
G1 X116.991 Y110.124 E7.5144
G1 X117.349 Y110.269 E7.52724
G1 X117.545 Y110.426 E7.5356
G1 X117.763 Y110.767 E7.54906
G1 X117.825 Y111.036 E7.55824
G1 X117.828 Y138.124 E8.45919
G1 X119.513 Y138.124 E8.51523
G1 X119.073 Y137.963 E8.53082
G1 X118.765 Y137.5 E8.54931
G1 X118.72 Y137.2 E8.5594
G1 X118.72 Y124.2 E8.99178
G1 X118.837 Y123.729 E9.00793
G1 X119.119 Y123.4 E9.02234
G1 X119.439 Y123.239 E9.03425
G1 X119.72 Y123.2 E9.04369
G1 X134.72 Y123.2 E9.54259
G1 X135.001 Y123.239 E9.55203
G1 X135.321 Y123.399 E9.56392
G1 X135.603 Y123.729 E9.57836
G1 F1800 E2.57836
G0 F3000 X135.622 Y123.729
G0 X119.023 Y123.271
G0 X118.852 Y137.942
G0 X118 Y137.952
G0 X117.729 Y110.799
G0 X117.333 Y110.799
G1 F1800 E9.57836
G1 F1200 X117.426 Y111.071 E9.58792
G1 X117.428 Y138.524 E10.50101
G1 X119.014 Y138.524 E10.55376
G1 F997.9 X119.72 Y138.443 E10.58219
G1 F848.1 X134.887 Y138.44 E11.29599
G1 F991.7 X135.487 Y138.525 E11.32038
G1 F1200 X137.228 Y138.524 E11.37829
G1 X137.228 Y111.099 E12.29045
G1 X137.262 Y110.922 E12.29644
G1 X137.413 Y110.689 E12.30567
G1 X137.607 Y110.565 E12.31333
G1 X137.828 Y110.524 E12.32081
G1 X140.924 Y110.524 E12.42378
G1 X140.924 Y76.724 E13.54797
G1 X114.124 Y76.724 E14.43935
G1 X114.124 Y110.524 E15.56354
G1 X116.929 Y110.524 E15.65683
G1 X117.17 Y110.63 E15.66559
G1 X117.333 Y110.799 E15.6734
G0 F3000 X117.729 Y110.799
G0 X118 Y137.952
G0 X119.332 Y138.1
G0 X119.332 Y137.658
G1 F1200 X119.147 Y137.38 E15.68451
G1 X119.12 Y137.2 E15.69056
G1 X119.12 Y124.2 E16.12294
G1 X119.19 Y123.917 E16.13264
G1 X119.359 Y123.72 E16.14127
G1 X119.597 Y123.6 E16.15014
G1 X134.843 Y123.6 E16.65722
G1 X135.081 Y123.719 E16.66607
G1 X135.25 Y123.917 E16.67473
G1 X135.32 Y124.2 E16.68442
G1 X135.32 Y137.308 E17.1204
G1 X135.133 Y137.636 E17.13296
G1 F991.7 X134.838 Y137.875 E17.14824
G1 F848.1 X119.72 Y137.881 E17.85974
G1 F997.9 X119.332 Y137.658 E17.87763
G1 F1800 E10.87763
G0 F3000 X119.332 Y138.1
G0 X134.755 Y138.1
G0 X134.755 Y137.398
;TYPE:WALL-OUTER
G1 F1800 E17.87763
G1 F1200 X119.72 Y137.4 E18.3777
G1 X119.59 Y137.353 E18.3823
G1 X119.52 Y137.246 E18.38655
G1 X119.52 Y124.123 E18.82302
G1 X119.677 Y124 E18.82966
G1 X134.763 Y124 E19.33142
G1 X134.92 Y124.123 E19.33805
G1 X134.915 Y137.245 E19.77449
G1 X134.858 Y137.346 E19.77835
G1 X134.755 Y137.398 E19.78219
G0 F3000 X134.555 Y137.398
G1 F1800 E12.78219
G0 F3000 X134.555 Y138.1
G0 X135.55 Y138.028
G0 X135.55 Y123.372
G0 X119.023 Y123.271
G0 X118.852 Y137.942
G0 X118 Y137.952
G0 X117.729 Y111.106
G0 X117.028 Y111.106
G1 F1800 E19.78219
G1 F1200 X117.028 Y138.924 E20.70742
G1 X137.628 Y138.924 E21.39258
G1 X137.634 Y111.072 E22.31894
G1 X137.7 Y110.969 E22.32301
G1 X137.828 Y110.924 E22.32752
G1 X141.324 Y110.924 E22.4438
G1 X141.324 Y76.324 E23.5946
G1 X113.724 Y76.324 E24.51258
G1 X113.724 Y110.924 E25.66338
G1 X116.889 Y110.924 E25.76865
G1 X116.997 Y111.015 E25.77334
G1 X117.028 Y111.106 E25.77654
G0 F3000 X117.028 Y111.306
G1 F1800 E18.77654
G1 F300 Z0.4
G0 F3000 X122.851 Y101.757 Z0.4
G1 F300 Z0.2
G1 F1800 E25.77654
G1 F1200 X121.565 Y101.6 E25.81963
G1 X120.494 Y100.863 E25.86287
G1 X119.901 Y99.717 E25.90579
G1 X119.901 Y98.427 E25.94869
G1 X120.492 Y97.285 E25.99146
G1 X121.558 Y96.545 E26.03462
G1 X122.854 Y96.383 E26.07806
G1 X124.057 Y96.841 E26.12088
G1 X124.924 Y97.814 E26.16422
G1 X125.231 Y99.072 E26.20729
G1 X124.918 Y100.332 E26.25047
G1 X124.058 Y101.298 E26.29349
G1 X122.851 Y101.757 E26.33644
G0 F3000 X122.653 Y101.733
G1 F1800 E19.33644
G1 F300 Z0.4
G0 F3000 X133.463 Y87.268 Z0.4
G1 F300 Z0.2
G1 F1800 E26.33644
G1 F1200 X132.136 Y87.103 E26.38092
G1 X131.031 Y86.342 E26.42554
G1 X130.41 Y85.16 E26.46995
G1 X130.412 Y83.8 E26.51518
G1 X131.043 Y82.612 E26.55993
G1 X132.14 Y81.865 E26.60407
G1 X133.474 Y81.695 E26.6488
G1 X134.723 Y82.176 E26.69331
G1 X135.622 Y83.187 E26.73831
G1 X135.939 Y84.48 E26.78259
G1 X135.619 Y85.789 E26.82741
G1 X134.729 Y86.786 E26.87186
G1 X133.463 Y87.268 E26.91691
G0 F3000 X133.265 Y87.244
G1 F1800 E19.91691
G1 F300 Z0.4
G0 F3000 X135.944 Y123.551 Z0.4
;TYPE:SKIN
G1 F300 Z0.2
G1 F1800 E26.91691
G1 F1200 X135.576 Y123.121 E26.93574
G1 X135.143 Y122.885 E26.95214
G1 X134.742 Y122.821 E26.96565
G1 X119.694 Y122.821 E27.46614
G1 X119.293 Y122.885 E27.47965
G1 F1148.3 X118.883 Y123.094 E27.49565
G1 F1059.6 X118.504 Y123.537 E27.51761
G1 F948.6 X118.277 Y124.131 E27.54436
G1 F1019.1 X118.206 Y123.563 E27.56678
G1 F1200 X118.204 Y110.997 E27.98473
G1 X118.148 Y110.725 E27.99396
G1 X117.99 Y110.377 E28.00667
G1 X117.615 Y109.986 E28.02469
G1 X117.074 Y109.749 E28.04434
G1 X114.904 Y109.744 E28.11651
G1 X114.904 Y77.504 E29.18882
G1 X140.144 Y77.504 E30.0283
G1 X140.144 Y109.744 E31.10061
G1 X137.791 Y109.747 E31.17887
G1 X137.317 Y109.839 E31.19493
G1 X136.872 Y110.124 E31.21251
G1 X136.653 Y110.397 E31.22415
G1 X136.523 Y110.668 E31.23415
G1 X136.449 Y111.052 E31.24715
G1 X136.448 Y123.533 E31.66227
G1 F1240.3 X136.461 Y124.196 E31.68361
G1 F1266.5 X136.461 Y137.747 E32.11066
G1 F1230.8 X135.932 Y137.746 E32.12781
G1 F1227.6 X136.087 Y137.456 E32.1385
G1 F1250 X136.084 Y124.149 E32.56339
G1 F1230.8 X135.944 Y123.551 E32.58331
G1 F1800 E25.58331
G0 F3000 X135.691 Y123.68
G0 X118.894 Y123.372
G0 X118.852 Y137.942
G0 X118.307 Y137.645
G1 F1800 E32.58331
G1 F843.6 X118.275 Y137.235 E32.60276
G1 F888.9 X118.277 Y124.131 E33.19115
G1 F1800 E26.19115
G1 F300 Z0.4
G0 F3000 X118.522 Y124.289 Z0.4
G0 X122.783 Y102.932
G1 F300 Z0.2
G1 F1800 E33.19115
G1 F1200 X123.247 Y102.867 E33.20673
G1 X124.529 Y102.376 E33.25239
G1 X124.881 Y102.141 E33.26647
G1 X125.872 Y101.034 E33.31589
G1 X126.045 Y100.685 E33.32884
G1 X126.382 Y99.315 E33.37577
G1 X126.382 Y98.825 E33.39207
G1 X126.047 Y97.433 E33.43969
G1 X125.842 Y97.066 E33.45367
G1 X124.922 Y96.034 E33.49965
G1 X124.536 Y95.758 E33.51543
G1 X123.21 Y95.264 E33.5625
G1 X122.735 Y95.208 E33.57841
G1 X121.392 Y95.369 E33.62339
G1 X120.946 Y95.527 E33.63913
G1 X119.692 Y96.395 E33.68986
G1 X119.442 Y96.747 E33.70422
G1 X118.87 Y97.839 E33.74522
G1 X118.761 Y98.12 E33.75524
G1 X118.716 Y98.472 E33.76704
G1 X118.717 Y99.696 E33.80775
G1 X118.75 Y99.983 E33.81736
G1 X118.87 Y100.301 E33.82867
G1 X119.49 Y101.493 E33.87336
G1 X119.736 Y101.772 E33.88573
G1 X120.991 Y102.638 E33.93644
G1 X121.326 Y102.751 E33.9482
G1 X122.783 Y102.932 E33.99703
G1 F1800 E26.99703
G1 F300 Z0.4
G0 F3000 X133.358 Y88.44 Z0.4
G1 F300 Z0.2
G1 F1800 E33.99703
G1 F1200 X133.738 Y88.425 E34.00968
G1 X135.212 Y87.867 E34.0621
G1 X135.55 Y87.634 E34.07576
G1 X136.462 Y86.614 E34.12127
G1 X136.64 Y86.364 E34.13147
G1 X136.772 Y86.036 E34.14323
G1 X137.09 Y84.723 E34.18817
G1 X137.087 Y84.22 E34.2049
G1 X136.779 Y82.948 E34.24843
G1 X136.641 Y82.601 E34.26085
G1 X136.477 Y82.365 E34.27041
G1 X135.642 Y81.419 E34.31237
G1 X135.415 Y81.22 E34.32241
G1 X135.099 Y81.048 E34.33438
G1 X133.774 Y80.546 E34.38151
G1 X133.417 Y80.516 E34.39342
G1 X131.973 Y80.69 E34.4418
G1 X131.695 Y80.77 E34.45142
G1 X131.443 Y80.902 E34.46088
G1 X130.385 Y81.631 E34.50361
G1 X130.051 Y81.95 E34.51898
G1 X129.315 Y83.348 E34.57152
G1 X129.233 Y83.718 E34.58413
G1 X129.224 Y85.267 E34.63565
G1 X129.33 Y85.628 E34.64816
G1 X130.022 Y86.946 E34.69767
G1 X130.311 Y87.279 E34.71234
G1 X131.512 Y88.1 E34.76073
G1 X131.933 Y88.266 E34.77578
G1 X133.358 Y88.44 E34.82353
G1 F1800 E27.82353
G1 F300 Z0.4
G0 F3000 X139.364 Y77.704 Z0.4
G1 F300 Z0.2
G1 F1800 E34.82353
G1 F1200 X139.944 Y78.284 E34.85081
G0 F3000 X139.944 Y78.85
G1 F1200 X138.798 Y77.704 E34.90471
G0 F3000 X138.232 Y77.704
G1 F1200 X139.944 Y79.416 E34.98524
G0 F3000 X139.944 Y79.982
G1 F1200 X137.667 Y77.704 E35.09237
G0 F3000 X137.101 Y77.704
G1 F1200 X139.944 Y80.547 E35.22609
G0 F3000 X139.944 Y81.113
G1 F1200 X136.535 Y77.704 E35.38644
G0 F3000 X135.97 Y77.704
G1 F1200 X139.944 Y81.679 E35.57339
G0 F3000 X139.944 Y82.244
G1 F1200 X135.404 Y77.704 E35.78694
G0 F3000 X134.838 Y77.704
G1 F1200 X139.944 Y82.81 E36.02711
G0 F3000 X139.944 Y83.376
G1 F1200 X134.273 Y77.704 E36.29388
G0 F3000 X133.707 Y77.704
G1 F1200 X139.944 Y83.941 E36.58725
G0 F3000 X139.944 Y84.507
G1 F1200 X133.141 Y77.704 E36.90724
G0 F3000 X132.575 Y77.704
G1 F1200 X139.944 Y85.073 E37.25385
G0 F3000 X139.944 Y85.638
G1 F1200 X136.798 Y82.492 E37.40183
G1 X136.728 Y82.422
G0 F3000 X137.076 Y83.336
G1 F1200 X139.944 Y86.204 E37.53673
G0 F3000 X139.944 Y86.77
G1 F1200 X137.259 Y84.085 E37.66303
G0 F3000 X137.286 Y84.677
G1 F1200 X139.944 Y87.335 E37.78805
G0 F3000 X139.944 Y87.901
G1 F1200 X137.192 Y85.149 E37.9175
G0 F3000 X137.081 Y85.604
G1 F1200 X139.944 Y88.467 E38.05216
G0 F3000 X139.944 Y89.033
G1 F1200 X136.97 Y86.058 E38.19208
G0 F3000 X136.809 Y86.463
G1 F1200 X139.944 Y89.598 E38.33954
G0 F3000 X139.944 Y90.164
G1 F1200 X136.571 Y86.791 E38.49819
G0 F3000 X136.304 Y87.089
G1 F1200 X139.944 Y90.73 E38.66943
G0 F3000 X139.944 Y91.295
G1 F1200 X136.037 Y87.388 E38.8532
G0 F3000 X135.77 Y87.687
G1 F1200 X139.944 Y91.861 E39.04954
G0 F3000 X139.944 Y92.427
G1 F1200 X135.454 Y87.937 E39.26073
G0 F3000 X135.082 Y88.13
G1 F1200 X139.944 Y92.992 E39.48943
G0 F3000 X139.944 Y93.558
G1 F1200 X134.671 Y88.284 E39.73747
G0 F3000 X134.26 Y88.439
G1 F1200 X139.944 Y94.124 E40.00486
G0 F3000 X139.944 Y94.689
G1 F1200 X133.849 Y88.594 E40.29155
G0 F3000 X133.327 Y88.638
G1 F1200 X139.944 Y95.255 E40.60279
G0 F3000 X139.944 Y95.821
G1 F1200 X132.684 Y88.56 E40.9443
G0 F3000 X132.04 Y88.482
G1 F1200 X139.944 Y96.386 E41.31608
G0 F3000 X139.944 Y96.952
G1 F1200 X130.947 Y87.955 E41.73927
G1 X130.877 Y87.885
G0 F3000 X131.136 Y87.507
G0 X130.063 Y86.425
G0 X129.639 Y86.647
G1 F1200 X120.696 Y77.704 E42.15992
G0 F3000 X120.13 Y77.704
G1 F1200 X139.944 Y97.518 E43.09191
G0 F3000 X139.944 Y98.083
G1 F1200 X119.565 Y77.704 E44.05048
G0 F3000 X118.999 Y77.704
G1 F1200 X139.944 Y98.649 E45.03567
G0 F3000 X139.944 Y99.215
G1 F1200 X118.433 Y77.704 E46.04748
G0 F3000 X117.868 Y77.704
G1 F1200 X139.944 Y99.781 E47.08589
G0 F3000 X139.944 Y100.346
G1 F1200 X117.302 Y77.704 E48.1509
G0 F3000 X116.736 Y77.704
G1 F1200 X139.944 Y100.912 E49.24253
G0 F3000 X139.944 Y101.478
G1 F1200 X116.171 Y77.704 E50.36077
G0 F3000 X115.605 Y77.704
G1 F1200 X139.944 Y102.043 E51.5056
G0 F3000 X139.944 Y102.609
G1 F1200 X115.104 Y77.769 E52.674
G0 F3000 X115.104 Y78.335
G1 F1200 X139.944 Y103.175 E53.84239
G0 F3000 X139.944 Y103.74
G1 F1200 X115.104 Y78.9 E55.01079
G0 F3000 X115.104 Y79.466
G1 F1200 X139.944 Y104.306 E56.17919
G0 F3000 X139.944 Y104.872
G1 F1200 X115.104 Y80.032 E57.34759
G0 F3000 X115.104 Y80.597
G1 F1200 X139.944 Y105.437 E58.51598
G0 F3000 X139.944 Y106.003
G1 F1200 X115.104 Y81.163 E59.68438
G0 F3000 X115.104 Y81.729
G1 F1200 X139.944 Y106.569 E60.85278
G0 F3000 X139.944 Y107.134
G1 F1200 X115.104 Y82.295 E62.02115
G0 F3000 X115.104 Y82.86
G1 F1200 X139.944 Y107.7 E63.18955
G0 F3000 X139.944 Y108.266
G1 F1200 X115.104 Y83.426 E64.35795
G0 F3000 X115.104 Y83.992
G1 F1200 X139.944 Y108.832 E65.52634
G0 F3000 X139.944 Y109.397
G1 F1200 X115.104 Y84.557 E66.69474
G0 F3000 X115.104 Y85.123
G1 F1200 X139.526 Y109.545 E67.84348
G0 F3000 X138.962 Y109.546
